!!!!SEGMENT: pl-kk--kk-i-477--001-006_vogel--missa-solemnis-credo.krn
!!!cenid: 17xx:1903
!!!COM: Vogel
!!!COM-rismID: pe30003636
!!!CDT:
!!!CNT:
!!!OPR: Missa solemnis
!!!OTL: Credo
!!!OMV: 006
!!!PDT:
!!!AGN: Sacred; Mass
!!!YEC: Copyright 2022 Narodowy Instytut Fryderyka Chopina (https://polishscores.org)
!!!YEM: License CC-BY-4.0 (https://creativecommons.org/licenses/by/4.0)
!!!SMS-siglum: PL-Kk
!!!SMS-shelfmark: Kk.I.477
!!!SMS-shelfwork: 001-006 M
!!!SMS-variant:
!!!SMS-altvar:
!!!NIFC-rismSourceID: 1001141397
!!!NIFC-rismChildID: 1001141397
!!!NIFC-islandoraID: pl-kk:14142
!!!URL-pdf-islandora: https://repozytorium.nifc.pl/islandora/object/pl-kk%3A14142/datastream/PDF/view
!!!URL-scan: https://polish.musicsources.pl/pl/lokalizacje/galeria/rekopisy/6084 @EN{Scan on Polish Music Sources Website} @PL{Skany w portalu Dziedzictwo Muzyki Polskiej w otwartym dostępie}
!!!IIIF:
!!!ONB-nifc: UWAGA: części Mszy: 1. Kyrie, 2. Gloria, 3. Qui tollis, 4. Quoniam, 5. Cum Sancto, 6. Credo, 7. Et incarnatus, 8. Et resurrexit, 9. Sanctus, 10. Benedictus, 11. Agnus Dei
!!!AIN: 1 alto 4 empty 2 oboe 1 organ 1 tenor 1 timpa 1 viola 2 violn 1 vox
!!!key:
**kern	**fba	**dynam	**kern	**dynam	**kern	**dynam	**kern	**dynam	**kern	**text	**kern	**text	**kern	**text	**kern	**text	**kern	**dynam	**kern	**kern	**kern	**dynam	**kern	**dynam	**kern	**dynam
*	*	*	*group4	*	*group4	*	*group4	*	*group3	*	*group3	*	*group3	*	*group3	*	*	*	*group2	*group2	*group2	*	*group1	*	*group1	*
*part14	*	*	*part13	*	*part12	*	*part11	*	*part10	*	*part9	*	*part8	*	*part7	*	*part6	*	*part5	*part4	*part3	*	*part2	*	*part1	*
*staff14	*	*	*staff13	*	*staff12	*	*staff11	*	*staff10	*	*staff9	*	*staff8	*	*staff7	*	*staff6	*	*staff5	*staff4	*staff3	*	*staff2	*	*staff1	*
*Iorgan	*	*	*Iviola	*	*Ivioln	*	*Ivioln	*	*Iempty	*	*Itenor	*	*Ialto	*	*Ivox	*	*Itimpa	*	*Iempty	*Iempty	*Iempty	*	*Ioboe	*	*Ioboe	*
*I"Organo.	*	*	*I"Viola	*	*I"Violino II.do	*	*I"Violino I:mo	*	*I"Baſso.	*	*I"Tenore.	*	*I"Alto.	*	*I"Canto.	*	*I"Tympani in C.	*	*I"Clarino 2:do in C.	*I"Clarino Primo in C.	*I"Clarino Principale. in C.	*	*I"Oboa II.da	*	*I"Oboa I.mo	*
*I'org	*	*	*I'vla	*	*I'vl 2	*	*I'vl 1	*	*I'B	*	*I'T	*	*I'A	*	*I'S	*	*I'timp	*	*I'clno 2	*I'clno 1	*I'clno princ	*	*I'ob 2	*	*I'ob 1	*
*clefF4	*	*	*clefC3	*	*clefG2	*	*clefG2	*	*clefF4	*	*clefC4	*	*clefC3	*	*clefC1	*	*clefF4	*	*clefG2	*clefG2	*clefG2	*	*clefG2	*	*clefG2	*
*k[]	*	*	*k[]	*	*k[]	*	*k[]	*	*k[]	*	*k[]	*	*k[]	*	*k[]	*	*k[]	*	*k[]	*k[]	*k[]	*	*k[]	*	*k[]	*
*C:	*	*	*C:	*	*C:	*	*C:	*	*C:	*	*C:	*	*C:	*	*C:	*	*C:	*	*C:	*C:	*C:	*	*C:	*	*C:	*
*M2/2	*	*	*M2/2	*	*M2/2	*	*M2/2	*	*M2/2	*	*M2/2	*	*M2/2	*	*M2/2	*	*M2/2	*	*M2/2	*M2/2	*M2/2	*	*M2/2	*	*M2/2	*
*met(c|)	*	*	*met(c|)	*	*met(c|)	*	*met(c|)	*	*met(c|)	*	*met(c|)	*	*met(c|)	*	*met(c|)	*	*met(c|)	*	*met(c|)	*met(c|)	*met(c|)	*	*met(c|)	*	*met(c|)	*
=1	=1	=1	=1	=1	=1	=1	=1	=1	=1	=1	=1	=1	=1	=1	=1	=1	=1	=1	=1	=1	=1	=1	=1	=1	=1	=1
*	*	*	*	*	*	*	*	*	*all\middle or right	*	*all\middle or right	*	*all\middle or right	*	*all\middle or right	*	*	*	*	*	*	*	*	*	*	*
*2\right	*	*	*2\right	*below	*2\right	*	*2\right	*	*2\right	*	*2\right	*	*2\right	*	*2\right	*	*2\right	*	*2\right	*2\right	*2\right	*	*2\right	*	*2\right	*
!LO:TX:a:t=Vivace	!	!	!LO:TX:a:t=vivace	!	!LO:TX:a:t=Vivace.	!	!LO:TX:a:t=Vivace	!	!	!	!LO:TX:a:t=T&colon;	!	!LO:TX:a:t=T&colon;	!	!LO:TX:a:t=T&colon;	!	!LO:TX:a:t=Vivace	!	!LO:TX:a:t=Vivace.	!LO:TX:a:t=Vivace.	!LO:TX:a:t=Vivace	!	!LO:TX:a:t=Vivace	!	!LO:TX:a:t=Vivace	!
!LO:TX:a:B:t=Credo	!	!LO:DY:rj:t=for&colon;	!LO:TX:a:t=Credo	!LO:DY:rj:t=fo.	!LO:TX:a:t=Credo	!LO:DY:rj:t=for	!LO:TX:a:t=Credo	!LO:DY:a:rj	!LO:TX:a:t=Vivace	!	!LO:TX:a:t=Vivace	!	!LO:TX:a:t=Vivace	!	!LO:TX:a:t=Vivace	!	!LO:TX:a:t=Credo.	!LO:DY:a	!LO:TX:a:t=Credo,	!LO:TX:a:t=Credo.	!LO:TX:a:t=Credo&colon;	!LO:DY:rj:t=fo	!LO:TX:a:t=Credo	!	!LO:TX:a:t=Credo.	!LO:DY:rj:t=for
8C\L	5_	f	2G/	f	2ee 2g/	f	2ccc\|	f	2C/	Cre-	2e\	Cre-	2g\	Cre-	2cc\	Cre-	2C/	f	2e/	2cc\	2c/	f	2cc\	.	2ee\	f
8D\	.	.	.	.	.	.	.	.	.	.	.	.	.	.	.	.	.	.	.	.	.	.	.	.	.	.
8E\	.	.	.	.	.	.	.	.	.	.	.	.	.	.	.	.	.	.	.	.	.	.	.	.	.	.
8F\J	x	.	.	.	.	.	.	.	.	.	.	.	.	.	.	.	.	.	.	.	.	.	.	.	.	.
4G\	.	.	4G/	.	4dd 4g/	.	4bb\|	.	2G\	-do	2d\	-do	2g\	-do	2b\	-do	4GG/	.	4g/	4dd\	4g/	.	4b/	.	4dd\	.
4G\	.	.	4G/	.	4dd 4g/	.	4bb\|	.	.	.	.	.	.	.	.	.	4GG/	.	4g/	4dd\	4g/	.	4b/	.	4dd\	.
=2	=2	=2	=2	=2	=2	=2	=2	=2	=2	=2	=2	=2	=2	=2	=2	=2	=2	=2	=2	=2	=2	=2	=2	=2	=2	=2
*	*	*	*	*	*	*	*	*	*	*ij	*	*ij	*	*ij	*	*ij	*	*	*	*	*	*	*	*	*	*
8BB/L	6_ 5_	.	2G/	.	2ff 2g/	.	2ddd\	.	2BB/	Cre-	2f\	Cre-	2g\	Cre-	2dd\	Cre-	2GG/	.	2g/	2dd\	2g/	.	2dd\	.	2ff\	.
8GG/	.	.	.	.	.	.	.	.	.	.	.	.	.	.	.	.	.	.	.	.	.	.	.	.	.	.
8AA/	.	.	.	.	.	.	.	.	.	.	.	.	.	.	.	.	.	.	.	.	.	.	.	.	.	.
8BB/J	.	.	.	.	.	.	.	.	.	.	.	.	.	.	.	.	.	.	.	.	.	.	.	.	.	.
4C/	X 3	.	4G/	.	4ee 4g/	.	4ccc\|	.	2C/	-do	2e\	-do	2g\	-do	2cc\	-do	4C/	.	4e/	4cc\	4cc\	.	4cc\	.	4ee\	.
*	*	*	*	*	*	*	*	*	*	*Xij	*	*Xij	*	*Xij	*	*Xij	*	*	*	*	*	*	*	*	*	*
4C/	.	.	4G/	.	4ee 4g/	.	4ccc\|	.	.	.	.	.	.	.	.	.	4C/	.	4e/	4cc\	4cc\	.	4cc\	.	4ee\	.
=3	=3	=3	=3	=3	=3	=3	=3	=3	=3	=3	=3	=3	=3	=3	=3	=3	=3	=3	=3	=3	=3	=3	=3	=3	=3	=3
4F\	6	.	4F/	.	4dd\	.	4ccc\|	.	2F\	in	2f\	in	2a\	in	2dd\	in	2r	.	4dd\	4dd\	2r	.	4a/	.	4dd\	.
4D\	.	.	4A/	.	8ff\L	.	8ddd\L|	.	.	.	.	.	.	.	.	.	.	.	4r	4r	.	.	4dd\	.	4ff\	.
.	.	.	.	.	(16ee\L	.	16ccc\L|	.	.	.	.	.	.	.	.	.	.	.	.	.	.	.	.	.	.	.
.	.	.	.	.	16ff\JJ)	.	16ddd\JJ|	.	.	.	.	.	.	.	.	.	.	.	.	.	.	.	.	.	.	.
4G\	4	.	4G/	.	4ee\	.	4ccc\|	.	4G\	u-	4e\	u-	4g\	u-	4cc\	u-	4r	.	4e/	4cc\	4r	.	4cc\	.	4ee\	.
4GG/	3	.	4G/	.	4dd\	.	4bb\|	.	4G\	-num	4d\	-num	4g\	-num	4b\	-num	4GG/	.	4g/	4dd\	8g/L	.	4b\	.	4dd\	.
.	.	.	.	.	.	.	.	.	.	.	.	.	.	.	.	.	.	.	.	.	8g/J	.	.	.	.	.
=4	=4	=4	=4	=4	=4	=4	=4	=4	=4	=4	=4	=4	=4	=4	=4	=4	=4	=4	=4	=4	=4	=4	=4	=4	=4	=4
2C/	.	.	4G/	.	4ee\	.	4ccc\|	.	4C/	De-	4e\	De-	4g\	De-	4cc\	De-	4C/	.	4e/	4cc\	4cc\	.	4cc\	.	4ee\	.
.	.	.	4r	.	4r	.	4r	.	4C/	-um	4e\	-um	4g\	-um	4cc\	-um	4r	.	4r	4r	4r	.	4r	.	4r	.
4C/	.	.	4G/	.	4e/	.	4cc\|	.	2r	.	2r	.	2r	.	2r	.	4C/	.	4e/	4cc\	4cc\	.	8cc\L|	.	8ee\L|	.
.	.	.	.	.	.	.	.	.	.	.	.	.	.	.	.	.	.	.	.	.	.	.	8ee\|	.	8gg\|	.
.	.	.	.	.	8qqcc/	.	8qee/	.	.	.	.	.	.	.	.	.	.	.	.	.	.	.	.	.	.	.
4GG/	.	.	4G/	.	8b/L	.	8dd\L	.	.	.	.	.	.	.	.	.	4r	.	4g/	4dd\	8g/L	.	8b\|	.	8dd\|	.
.	.	.	.	.	16a/L	.	(16cc\L	.	.	.	.	.	.	.	.	.	.	.	.	.	8g/J	.	8dd\J|	.	8ff\J|	.
.	.	.	.	.	16b/JJ	.	16dd\JJ)	.	.	.	.	.	.	.	.	.	.	.	.	.	.	.	.	.	.	.
=5	=5	=5	=5	=5	=5	=5	=5	=5	=5	=5	=5	=5	=5	=5	=5	=5	=5	=5	=5	=5	=5	=5	=5	=5	=5	=5
4C/	.	.	4G/	.	8cc\L	.	4ee\|	.	4C/	Pa-	4e\	Pa-	4g\	Pa-	4cc\	Pa-	4C/	.	4e/	4cc\	4c/	.	4cc\	.	4ee\	.
.	.	.	.	.	8ee\	.	.	.	.	.	.	.	.	.	.	.	.	.	.	.	.	.	.	.	.	.
4C/	.	.	4C/	.	8ee\	.	(16gg\LL	.	8C/	-trem	8e\	-trem	8g\	-trem	8cc\	-trem	4r	.	4e/	4cc\	8e/L	.	4cc\	.	4ee\	.
.	.	.	.	.	.	.	16ff#X\	.	.	.	.	.	.	.	.	.	.	.	.	.	.	.	.	.	.	.
.	.	.	.	.	8ee\J	.	16gg\	.	8C/	Om-	8e\	om-	8g\	om-	8cc\	Om-	.	.	.	.	8g/J	.	.	.	.	.
.	.	.	.	.	.	.	16aa\JJ)	.	.	.	.	.	.	.	.	.	.	.	.	.	.	.	.	.	.	.
*	*	*	*	*	*tremolo	*	*	*	*	*	*	*	*	*	*	*	*	*	*	*	*	*	*	*	*	*
4C/	.	.	4c/	.	8ee\L	.	4gg\|	.	4C/	-ni-	4e\	-ni-	4g\	-ni-	4cc\	-ni-	2r	.	4e/	4cc\	4cc\	.	4cc\	.	4ee\	.
.	.	.	.	.	8ee\	.	.	.	.	.	.	.	.	.	.	.	.	.	.	.	.	.	.	.	.	.
4C/	.	.	4c/	.	8ee\	.	4gg\|	.	4C/	-po-	4e\	-po-	4g\	-po-	4cc\	-po-	.	.	4e/	4cc\	4cc\	.	4cc\	.	4ee\	.
.	.	.	.	.	8ee\J	.	.	.	.	.	.	.	.	.	.	.	.	.	.	.	.	.	.	.	.	.
=6	=6	=6	=6	=6	=6	=6	=6	=6	=6	=6	=6	=6	=6	=6	=6	=6	=6	=6	=6	=6	=6	=6	=6	=6	=6	=6
4E\	#	.	4e\	.	8b\L	.	4gg#X\|	.	2E\	-ten-	2e\	-ten-	2g#X\	-ten-	2b\	-ten-	00r	.	2.e/	2.ee\	4e/	.	2.g#X/	.	2.b\	.
.	.	.	.	.	8b\	.	.	.	.	.	.	.	.	.	.	.	.	.	.	.	.	.	.	.	.	.
!	!	!	!	!	!	!	!LO:LB:g=original	!	!	!	!	!	!	!	!	!	!	!	!	!	!	!	!	!	!	!
4E\	.	.	4e\	.	8b\	.	(16gg#\LL	.	.	.	.	.	.	.	.	.	.	.	.	.	8e/L	.	.	.	.	.
.	.	.	.	.	.	.	16ff#X\)	.	.	.	.	.	.	.	.	.	.	.	.	.	.	.	.	.	.	.
.	.	.	.	.	8b\J	.	(16gg#\	.	.	.	.	.	.	.	.	.	.	.	.	.	8e/J	.	.	.	.	.
.	.	.	.	.	.	.	16aa\JJ)	.	.	.	.	.	.	.	.	.	.	.	.	.	.	.	.	.	.	.
!	!	!	!	!	!	!	!	!	!	!	!	!	!	!	!	!	!	!	!	!	!LO:LB:g=original	!	!	!	!	!
4E\	.	.	4e\	.	8b\L	.	4gg#\|	.	4E\	-tem	4e\	-tem	4g#\	-tem	4b\	-tem	.	.	.	.	4e/	.	.	.	.	.
.	.	.	.	.	8b\	.	.	.	.	.	.	.	.	.	.	.	.	.	.	.	.	.	.	.	.	.
4E\	.	.	4e\	.	8b\	.	4gg#\|	.	4E\	fac-	4e\	fac-	4g#\	fac-	4b\	fac-	.	.	4e/	4ee\	4e/	.	4g#/	.	4b\	.
.	.	.	.	.	8b\J	.	.	.	.	.	.	.	.	.	.	.	.	.	.	.	.	.	.	.	.	.
!LO:LB:g=original	!	!	!LO:LB:g=original	!	!LO:LB:g=original	!	!	!	!LO:LB:g=original	!	!LO:LB:g=original	!	!LO:LB:g=original	!	!	!	!	!	!	!	!	!	!LO:LB:g=original	!	!	!
=7	=7	=7	=7	=7	=7	=7	=7	=7	=7	=7	=7	=7	=7	=7	=7	=7	=7	=7	=7	=7	=7	=7	=7	=7	=7	=7
*	*	*	*	*	*	*	*tremolo	*	*	*	*	*	*	*	*	*	*	*	*	*	*	*	*	*	*	*
4A\	n	.	4e\	.	8cc\L	.	8aa\L	.	4A\	-to-	4e\	-to-	4a\	-to-	4cc\	-to-	.	.	4e/	4ee\	4e/	.	2.a/	.	2cc\	.
.	.	.	.	.	8cc\	.	8aa\	.	.	.	.	.	.	.	.	.	.	.	.	.	.	.	.	.	.	.
4F\	5	.	4f\	.	8cc\	.	8aa\	.	4F\	-rem	4f\	-rem	4a\	-rem	4cc\	-rem	.	.	4r	4r	4r	.	.	.	.	.
.	.	.	.	.	8cc\J	.	8aa\J	.	.	.	.	.	.	.	.	.	.	.	.	.	.	.	.	.	.	.
*	*	*	*	*	*	*	*Xtremolo	*	*	*	*	*	*	*	*	*	*	*	*	*	*	*	*	*	*	*
!	!	!	!	!	!	!	!	!	!	!LO:MO:v:mod=cae	!	!	!	!	!	!	!	!	!	!	!	!	!	!	!	!
4D\	6 5	.	4f\	.	8b\L	.	8aa\L|	.	4D/	Coe-	4f\	cae-	4a\	Cae-	4b\	Cae-	.	.	4r	4r	4r	.	.	.	2b\	.
.	.	.	.	.	8b\	.	8aa\|	.	.	.	.	.	.	.	.	.	.	.	.	.	.	.	.	.	.	.
!	!	!	!	!	!	!	!	!	!	!	!	!	!	!	!LO:LB:g=original	!	!	!	!	!	!	!	!	!	!	!
4E\	#	.	4e\	.	8b\	.	8gg#X\|	.	8E\	-li	8e\	-li	8g#X\	-li	8b\	-li	.	.	4e/	4ee\	8e/L	.	4g#X/	.	.	.
.	.	.	.	.	8b\J	.	8gg#\J|	.	8E\	et	8e\	et	8g#\	et	8b\	et	.	.	.	.	8e/J	.	.	.	.	.
*	*	*	*	*	*Xtremolo	*	*	*	*	*	*	*	*	*	*	*	*	*	*	*	*	*	*	*	*	*
!	!	!	!	!	!	!	!	!	!	!	!	!	!	!	!	!	!	!	!LO:LB:g=original	!	!	!	!	!	!	!
=8	=8	=8	=8	=8	=8	=8	=8	=8	=8	=8	=8	=8	=8	=8	=8	=8	=8	=8	=8	=8	=8	=8	=8	=8	=8	=8
4AA/	5_	.	4e\	.	4cc\	.	4aa\|	.	4A\	ter-	4e\	ter-	4a\	ter-	4cc\	ter-	.	.	2e/	2ee\	2e/	.	2a/	.	2cc\	.
!	!	!	!	!	!	!	!	!	!	!	!	!	!	!LO:MO:mod=-rae	!	!	!	!	!	!	!	!	!	!	!	!
4.A\	.	.	4.a\	.	2ee\	.	4.ccc\	.	4A\	-rae	4e\	-rae	4a\	-ra	4cc\	-rae	.	.	.	.	.	.	.	.	.	.
.	.	.	.	.	.	.	.	.	2r	.	2r	.	2r	.	2r	.	.	.	2r	2r	2r	.	2r	.	2r	.
8B\L	X	.	8b\L	.	.	.	8ddd\L	.	.	.	.	.	.	.	.	.	.	.	.	.	.	.	.	.	.	.
8G\	.	.	8g\	.	4ee\	.	(8bb\	.	.	.	.	.	.	.	.	.	.	.	.	.	.	.	.	.	.	.
8A\J	.	.	8a\J	.	.	.	8ccc\J)	.	.	.	.	.	.	.	.	.	.	.	.	.	.	.	.	.	.	.
!	!	!	!	!	!	!	!	!	!	!	!	!	!	!	!	!	!	!	!	!LO:LB:g=original	!	!	!	!	!LO:LB:g=original	!
=9	=9	=9	=9	=9	=9	=9	=9	=9	=9	=9	=9	=9	=9	=9	=9	=9	=9	=9	=9	=9	=9	=9	=9	=9	=9	=9
4F#X\	6_ 5_	.	4f#X\	.	4dd\	.	4aa\	.	4F#X\	vi-	4d\	vi-	4a\	vi-	4cc\	vi-	.	.	2.dd\	2.dd\	1r	.	2.a/	.	2.cc\	.
4F#\	.	.	4c/	.	8a/L	.	2ddd\	.	4F#\	-si-	4d\	-si-	4a\	-si-	4cc\	-ſi-	.	.	.	.	.	.	.	.	.	.
.	.	.	.	.	8a/J	.	.	.	.	.	.	.	.	.	.	.	.	.	.	.	.	.	.	.	.	.
4F#\	.	.	4c/	.	8a/L	.	.	.	4F#\	-bi-	4d\	-bi-	4a\	-bi-	4cc\	-bi-	.	.	.	.	.	.	.	.	.	.
.	.	.	.	.	8a/	.	.	.	.	.	.	.	.	.	.	.	.	.	.	.	.	.	.	.	.	.
4F#\	.	.	(8c/L	.	8dd/	.	4ccc\	.	8F#\	-li-	8d\	-li-	8a\	-li-	8cc\	-li-	.	.	4dd\	4dd\	.	.	4a/	.	4cc\	.
.	X X	.	8A/J)	.	8dd/J	.	.	.	8F#\	-um	8d\	-um	8a\	-um	8cc\	-um	.	.	.	.	.	.	.	.	.	.
=10	=10	=10	=10	=10	=10	=10	=10	=10	=10	=10	=10	=10	=10	=10	=10	=10	=10	=10	=10	=10	=10	=10	=10	=10	=10	=10
4G\	.	.	4G/	.	4.dd\	.	4.bb\	.	4.G\	Om-	4.d\	om-	4.g\	om-	4.b\	om-	2GG/	.	4g/	4dd\	4g/	.	2.g/	.	2.b\	.
4G\	.	.	4G/	.	.	.	.	.	.	.	.	.	.	.	.	.	.	.	4g/	4dd\	8g/L	.	.	.	.	.
.	.	.	.	.	8cc\	.	8aa\	.	8G\	-ni-	8d\	-ni-	8g\	-ni-	8b\	-ni-	.	.	.	.	8g/J	.	.	.	.	.
*	*	*	*	*	*tremolo	*	*tremolo	*	*	*	*	*	*	*	*	*	*	*	*	*	*	*	*	*	*	*
4G\	.	.	4d\	.	8b\L	.	8gg\L	.	2G\	-um	2d\	-um	2g\	-um	2b\	-um	2r	.	2g/	2dd\	2g/	.	.	.	.	.
.	.	.	.	.	8b\	.	8gg\	.	.	.	.	.	.	.	.	.	.	.	.	.	.	.	.	.	.	.
4G\	.	.	4d\	.	8b\	.	8gg\	.	.	.	.	.	.	.	.	.	.	.	.	.	.	.	4g/	.	4b\	.
.	.	.	.	.	8b\J	.	8gg\J	.	.	.	.	.	.	.	.	.	.	.	.	.	.	.	.	.	.	.
=11	=11	=11	=11	=11	=11	=11	=11	=11	=11	=11	=11	=11	=11	=11	=11	=11	=11	=11	=11	=11	=11	=11	=11	=11	=11	=11
*	*	*	*tremolo	*	*	*	*	*	*	*	*	*	*	*	*	*	*	*	*	*	*	*	*	*	*	*
4E\	6\	.	8e\L	.	8cc#X\L	.	8gg\L	.	4E\	et	4e\	et	4g\	et	4cc#X\	et	0r	.	0r	0r	0r	.	1g	.	1cc#X	.
.	.	.	8e\	.	8cc#X\	.	8gg\	.	.	.	.	.	.	.	.	.	.	.	.	.	.	.	.	.	.	.
4E\	.	.	8e\	.	8cc#X\	.	8gg\	.	4E\	in-	4e\	in-	4g\	in-	4cc#\	in-	.	.	.	.	.	.	.	.	.	.
.	.	.	8e\J	.	8cc#X\J	.	8gg\J	.	.	.	.	.	.	.	.	.	.	.	.	.	.	.	.	.	.	.
4AA/	7	.	8e\L	.	8dd\L	.	8gg\L	.	4AA/	-vi-	4e\	-vi-	4g\	-vi-	4cc#\	-vi-	.	.	.	.	.	.	.	.	.	.
.	.	.	8e\	.	8dd\	.	8gg\	.	.	.	.	.	.	.	.	.	.	.	.	.	.	.	.	.	.	.
4AA/	.	.	8e\	.	8dd\	.	8gg\	.	4AA/	-si-	4e\	-si-	4g\	-ſi-	4cc#\	-si-	.	.	.	.	.	.	.	.	.	.
.	.	.	8e\J	.	8dd\J	.	8gg\J	.	.	.	.	.	.	.	.	.	.	.	.	.	.	.	.	.	.	.
*	*	*	*	*	*	*	*Xtremolo	*	*	*	*	*	*	*	*	*	*	*	*	*	*	*	*	*	*	*
!	!	!	!	!	!	!	!	!	!	!	!LO:LB:g=original	!	!	!	!	!	!	!	!	!	!	!	!	!	!	!
=12	=12	=12	=12	=12	=12	=12	=12	=12	=12	=12	=12	=12	=12	=12	=12	=12	=12	=12	=12	=12	=12	=12	=12	=12	=12	=12
4D\	#_	.	4A/	.	4dd\	.	4ff#X\|	.	4.D/	-bi-	4.d\	-bi-	4.f#\	-bi-	4.dd\	-bi-	.	.	.	.	.	.	2f#X/	.	2dd\	.
4D\	.	.	4A/	.	4dd\	.	4ff#\|	.	.	.	.	.	.	.	.	.	.	.	.	.	.	.	.	.	.	.
.	.	.	.	.	.	.	.	.	8D/	-li-	8f#X\	-li-	8a\	-li-	8dd\	-li-	.	.	.	.	.	.	.	.	.	.
!	!	!	!	!	!	!	!	!	!	!	!	!	!LO:LB:g=original	!	!	!	!	!	!	!	!	!	!	!	!	!
8D\L	.	.	8A/L	.	2dd 2d/	.	2ff# 2a 2d/	.	2D/	-um	2f#\	-um	2a\	-um	2dd\	-um	.	.	.	.	.	.	2r	.	2r	.
8F#X\	.	.	8A/	.	.	.	.	.	.	.	.	.	.	.	.	.	.	.	.	.	.	.	.	.	.	.
8A\	.	.	8A/	.	.	.	.	.	.	.	.	.	.	.	.	.	.	.	.	.	.	.	.	.	.	.
8d\J	X	.	8A/J	.	.	.	.	.	.	.	.	.	.	.	.	.	.	.	.	.	.	.	.	.	.	.
!	!	!	!	!	!	!	!	!	!LO:LB:g=original	!	!	!	!	!	!	!	!	!	!	!	!	!	!	!	!	!
=13	=13	=13	=13	=13	=13	=13	=13	=13	=13	=13	=13	=13	=13	=13	=13	=13	=13	=13	=13	=13	=13	=13	=13	=13	=13	=13
4D/	#	.	4A/	.	4ff#X 4a 4d/	.	(16dd\LL	.	2.D/	Et	2.f#X\	Et	2.a\	Et	2.dd\	Et	1r	.	2.dd\	2.dd\	1r	.	2.f#X/	.	2.dd\	.
.	.	.	.	.	.	.	16ee\	.	.	.	.	.	.	.	.	.	.	.	.	.	.	.	.	.	.	.
.	.	.	.	.	.	.	16ff#X\	.	.	.	.	.	.	.	.	.	.	.	.	.	.	.	.	.	.	.
.	.	.	.	.	.	.	16gg\JJ)	.	.	.	.	.	.	.	.	.	.	.	.	.	.	.	.	.	.	.
8D/L	.	.	4F#X/	.	4dd\	.	4aa\	.	.	.	.	.	.	.	.	.	.	.	.	.	.	.	.	.	.	.
8C#X/J	.	.	.	.	.	.	.	.	.	.	.	.	.	.	.	.	.	.	.	.	.	.	.	.	.	.
!	!	!	!	!	!	!	!LO:LB:g=original	!	!	!	!	!	!	!	!	!	!	!	!	!	!	!	!	!	!	!
4D/	.	.	4A/	.	4ff#\	.	4ddd\|	.	.	.	.	.	.	.	.	.	.	.	.	.	.	.	.	.	.	.
4F\	6 5	.	4D/	.	4aa\	.	4cccn\|	.	4F\	in	4d\	in	4a\	in	4ccn\	in	.	.	4dd\	4dd\	.	.	4a/	.	4ccn\	.
=14	=14	=14	=14	=14	=14	=14	=14	=14	=14	=14	=14	=14	=14	=14	=14	=14	=14	=14	=14	=14	=14	=14	=14	=14	=14	=14
*	*	*	*	*	*	*	*tremolo	*	*	*	*	*	*	*	*	*	*	*	*	*	*	*	*	*	*	*
4G\	5_ 3_	.	4D/	.	8gg\L	.	8bb\L	.	2G\	u-	2d\	u-	2g\	u-	2b\	u-	4GG/	.	4g/	4dd\	4g/	.	1g	.	1b	.
.	.	.	.	.	8gg\	.	8bb\	.	.	.	.	.	.	.	.	.	.	.	.	.	.	.	.	.	.	.
8G\L	.	.	4d\	.	8gg\	.	8bb\	.	.	.	.	.	.	.	.	.	4GG/	.	4g/	4dd\	8g/L	.	.	.	.	.
8F\J	.	.	.	.	8gg\J	.	8bb\J	.	.	.	.	.	.	.	.	.	.	.	.	.	8g/J	.	.	.	.	.
8G\L	.	.	4d\	.	8gg\L	.	8bb\L	.	2G\	-num	2d\	-num	2g\	-num	2b\	-num	2GG/	.	4g/	4dd\	4g/	.	.	.	.	.
8D\	.	.	.	.	8gg\	.	8bb\	.	.	.	.	.	.	.	.	.	.	.	.	.	.	.	.	.	.	.
8BB\	.	.	4d\	.	8gg\	.	8bb\	.	.	.	.	.	.	.	.	.	.	.	4g/	4dd\	4r	.	.	.	.	.
8GG\J	x x	.	.	.	8gg\J	.	8bb\J	.	.	.	.	.	.	.	.	.	.	.	.	.	.	.	.	.	.	.
!LO:LB:g=original	!	!	!	!	!LO:LB:g=original	!	!	!	!	!	!	!	!	!	!LO:LB:g=original	!	!	!	!	!	!	!	!	!	!	!
=15	=15	=15	=15	=15	=15	=15	=15	=15	=15	=15	=15	=15	=15	=15	=15	=15	=15	=15	=15	=15	=15	=15	=15	=15	=15	=15
4F#X\	6 5	.	4d\	.	8aa\L	.	8ccc\L	.	4F#X\	Do-	4d\	Do-	4a\	Do-	4cc\	Do-	1r	.	2.dd\	2.dd\	1r	.	1a	.	1ccn	.
.	.	.	.	.	8aa\	.	8ccc\	.	.	.	.	.	.	.	.	.	.	.	.	.	.	.	.	.	.	.
4D\	.	.	4f#X\	.	8aa\	.	8ccc\	.	8F#\	-ni-	8d\	-mi-	8a\	-mi-	8cc\	-mi-	.	.	.	.	.	.	.	.	.	.
.	.	.	.	.	8aa\J	.	8ccc\J	.	8F#\	-num	8d\	-num	8a\	-num	8cc\	-num	.	.	.	.	.	.	.	.	.	.
!	!	!	!LO:LB:g=original	!	!	!	!	!	!	!	!	!	!	!	!	!	!	!	!	!	!	!	!	!	!	!
4F#\	.	.	4d\	.	8aa\L	.	8ccc\L	.	4F#\	Je-	4d\	Je-	4a\	Je-	4cc\	Je-	.	.	.	.	.	.	.	.	.	.
.	.	.	.	.	8aa\	.	8ccc\	.	.	.	.	.	.	.	.	.	.	.	.	.	.	.	.	.	.	.
4D\	.	.	4f#X\	.	8aa\	.	8ccc\	.	4F#\	-sum	4d\	-sum	4a\	-sum	4cc\	-sum	.	.	4dd\	4dd\	.	.	.	.	.	.
.	.	.	.	.	8aa\J	.	8ccc\J	.	.	.	.	.	.	.	.	.	.	.	.	.	.	.	.	.	.	.
*	*	*	*	*	*	*	*Xtremolo	*	*	*	*	*	*	*	*	*	*	*	*	*	*	*	*	*	*	*
!	!	!	!	!	!	!	!	!	!	!	!	!	!	!	!	!	!LO:LB:g=original	!	!	!	!	!	!	!	!	!
=16	=16	=16	=16	=16	=16	=16	=16	=16	=16	=16	=16	=16	=16	=16	=16	=16	=16	=16	=16	=16	=16	=16	=16	=16	=16	=16
!	!	!	!	!	!	!	!	!	!	!LO:MO:mod=Chris	!	!LO:MO:mod=Chris	!	!LO:MO:mod=Chris	!	!LO:MO:mod=Chris	!	!	!	!	!	!	!	!	!	!
8G\L	8_	.	4d\	.	4gg\	.	4bb\|	.	2G\	X-	2d\	X-	2g\	X-	2b\	X-	4GG/	.	4g/	4dd\	4g/	.	2.g/	.	2.b\	.
8F#X\	.	.	.	.	.	.	.	.	.	.	.	.	.	.	.	.	.	.	.	.	.	.	.	.	.	.
8G\	.	.	4d\	.	4b/	.	4r	.	.	.	.	.	.	.	.	.	4GG/	.	4g/	4dd\	8g/L	.	.	.	.	.
8A\J	.	.	.	.	.	.	.	.	.	.	.	.	.	.	.	.	.	.	.	.	8g/J	.	.	.	.	.
8G\L	X	.	2d\	.	8b/L	.	8g\L|	.	2G\	-tum	2d\	-tum	2g\	-tum	2b\	-tum	4GG/	.	4g/	4dd\	4g/	.	.	.	.	.
8D\	.	.	.	.	8g/	.	8b\|	.	.	.	.	.	.	.	.	.	.	.	.	.	.	.	.	.	.	.
8BB\	.	.	.	.	8d/	.	8dd\|	.	.	.	.	.	.	.	.	.	4GG/	.	4g/	4dd\	4g/	.	4g/	.	4b\	.
8D\J	.	.	.	.	8B/J	.	8gg\J|	.	.	.	.	.	.	.	.	.	.	.	.	.	.	.	.	.	.	.
=17	=17	=17	=17	=17	=17	=17	=17	=17	=17	=17	=17	=17	=17	=17	=17	=17	=17	=17	=17	=17	=17	=17	=17	=17	=17	=17
4GG/	.	.	4G/	.	4d/	.	4bb\|	.	4GG/	fi-	4d\	fi-	4g\	fi-	4b\	fi-	4GG/	.	4g/	4dd\	4g/	.	2.g/	.	2dd\	.
.	.	.	.	.	.	.	8qgg/	.	.	.	.	.	.	.	.	.	.	.	.	.	.	.	.	.	.	.
4BB/	6	.	4B/	.	4dd\	.	8gg\L	.	8BB/	-li-	8B\	-li-	8d\	-li-	8g/	-li-	4r	.	4r	4r	4r	.	.	.	.	.
.	.	.	.	.	.	.	(16ff#X\L	.	8BB/	-um	8B\	-um	8d\	-um	8g/	-um	.	.	.	.	.	.	.	.	.	.
.	.	.	.	.	.	.	16gg\JJ)	.	.	.	.	.	.	.	.	.	.	.	.	.	.	.	.	.	.	.
4C/	5	.	4c/	.	4ee\	.	8gg'\L	.	4C/	De-	4G/	De-	4e\	De-	4g/	De-	2r	.	2r	2r	2r	.	.	.	2ee\	.
.	.	.	.	.	.	.	8gg'\J	.	.	.	.	.	.	.	.	.	.	.	.	.	.	.	.	.	.	.
.	.	.	.	.	8qff/	.	.	.	.	.	.	.	.	.	.	.	.	.	.	.	.	.	.	.	.	.
4AA/	n	.	4c/	.	8ee\L	.	4aa\	.	4AA/	-i	4c\	-i	4e\	-i	4a\	-i	.	.	.	.	.	.	[4a/	.	.	.
.	.	.	.	.	(16dd\L	.	.	.	.	.	.	.	.	.	.	.	.	.	.	.	.	.	.	.	.	.
.	.	.	.	.	16ee\JJ)	.	.	.	.	.	.	.	.	.	.	.	.	.	.	.	.	.	.	.	.	.
!	!	!	!	!	!	!	!	!	!	!	!LO:LB:g=original	!	!	!	!	!	!	!	!	!	!LO:LB:g=original	!	!	!	!	!
=18	=18	=18	=18	=18	=18	=18	=18	=18	=18	=18	=18	=18	=18	=18	=18	=18	=18	=18	=18	=18	=18	=18	=18	=18	=18	=18
!	!	!	!	!	!	!	!	!	!	!	!	!	!	!	!	!	!	!	!	!	!LO:TX:a:t=34	!	!	!	!	!
.	.	.	.	.	.	.	8qbb/	.	.	.	.	.	.	.	.	.	.	.	.	.	.	.	.	.	.	.
4D/	#	.	8d\L	.	4ff#X\	.	8aa\L	.	4D/	u-	4d\	u-	4f#X\	u-	4a\	u-	00r	.	1r	1r	00r	.	4a/]	.	2ff#X\	.
.	.	.	8d\	.	.	.	(16gg\L	.	.	.	.	.	.	.	.	.	.	.	.	.	.	.	.	.	.	.
.	.	.	.	.	.	.	16aa\JJ)	.	.	.	.	.	.	.	.	.	.	.	.	.	.	.	.	.	.	.
.	.	.	.	.	8qgg/	.	.	.	.	.	.	.	.	.	.	.	.	.	.	.	.	.	.	.	.	.
4BB/	8	.	8d\	.	8ff#\L	.	4bb\	.	4BB/	-ni-	4d\	-ni-	4f#\	-ni-	4b\	-ni-	.	.	.	.	.	.	2b/	.	.	.
.	.	.	8d\J	.	(16ee\L	.	.	.	.	.	.	.	.	.	.	.	.	.	.	.	.	.	.	.	.	.
.	.	.	.	.	16ff#\JJ)	.	.	.	.	.	.	.	.	.	.	.	.	.	.	.	.	.	.	.	.	.
.	.	.	.	.	.	.	8qccc/	.	.	.	.	.	.	.	.	.	.	.	.	.	.	.	.	.	.	.
4E\	3	.	8e\L	.	4gg\	.	8bb\L	.	4E\	-ge-	4e\	-ge-	4g\	-ge-	4b\	-ge-	.	.	.	.	.	.	.	.	2gg\	.
.	.	.	8e\	.	.	.	(16aa\L	.	.	.	.	.	.	.	.	.	.	.	.	.	.	.	.	.	.	.
.	.	.	.	.	.	.	16bb\JJ)	.	.	.	.	.	.	.	.	.	.	.	.	.	.	.	.	.	.	.
.	.	.	.	.	8qaa/	.	.	.	.	.	.	.	.	.	.	.	.	.	.	.	.	.	.	.	.	.
4C/	8	.	8e\	.	8gg\L	.	4ccc\	.	8C/	-ni-	8e\	-ni-	8g\	-ni-	8cc\	-ni-	.	.	.	.	.	.	4cc\	.	.	.
.	.	.	8e\J	.	(16ff#X\L	.	.	.	8C/	-tum	8e\	-tum	8g\	-tum	8cc\	-tum	.	.	.	.	.	.	.	.	.	.
.	.	.	.	.	16gg\JJ)	.	.	.	.	.	.	.	.	.	.	.	.	.	.	.	.	.	.	.	.	.
!	!	!	!	!	!	!	!	!	!	!	!	!	!LO:LB:g=original	!	!	!	!	!	!	!	!	!	!LO:LB:g=original	!	!	!
=19	=19	=19	=19	=19	=19	=19	=19	=19	=19	=19	=19	=19	=19	=19	=19	=19	=19	=19	=19	=19	=19	=19	=19	=19	=19	=19
.	.	.	.	.	.	.	8qddd/	.	.	.	.	.	.	.	.	.	.	.	.	.	.	.	.	.	.	.
*	*	*	*	*	*	*	*	*	*	*	*	*ij	*	*	*	*	*	*	*	*	*	*	*	*	*	*
4F#X\	5	.	8f#X\L	.	4aa\	.	8ccc\L	.	4F#X\	u-	4f#X\	u-	4a\	u-	4cc\	u-	.	.	2r	2r	.	.	4cc\	.	2aa\	.
.	.	.	8f#X\	.	.	.	(16bb\L	.	.	.	.	.	.	.	.	.	.	.	.	.	.	.	.	.	.	.
.	.	.	.	.	.	.	16ccc\JJ)	.	.	.	.	.	.	.	.	.	.	.	.	.	.	.	.	.	.	.
.	.	.	.	.	8qbb/	.	.	.	.	.	.	.	.	.	.	.	.	.	.	.	.	.	.	.	.	.
4D\	8	.	8f#X\	.	8aa\L	.	4ddd\|	.	4D\	-ni-	4f#\	-ni-	4a\	-ni-	4dd\	-ni-	.	.	.	.	.	.	4dd\	.	.	.
.	.	.	8f#X\J	.	(16gg\L	.	.	.	.	.	.	.	.	.	.	.	.	.	.	.	.	.	.	.	.	.
.	.	.	.	.	16aa\JJ)	.	.	.	.	.	.	.	.	.	.	.	.	.	.	.	.	.	.	.	.	.
!	!	!	!	!	!	!	!	!	!LO:LB:g=original	!	!	!	!	!	!	!	!	!	!	!	!	!	!	!	!	!
4G\	.	.	8d\L	.	8gg\L	.	4bb\|	.	4G\	-ge-	4d\	-ge-	4g\	-ge-	4b\	-ge-	.	.	4r	4r	.	.	2b\	.	2gg\	.
.	.	.	8d\	.	8gg\	.	.	.	.	.	.	.	.	.	.	.	.	.	.	.	.	.	.	.	.	.
.	.	.	.	.	.	.	8qccc/	.	.	.	.	.	.	.	.	.	.	.	.	.	.	.	.	.	.	.
4G\	.	.	8d\	.	8gg\	.	8bb\L	.	8G\	-ni-	8d\	-ni-	8g\	-ni-	8b\	-ni-	.	.	4g/	4dd\	.	.	.	.	.	.
.	.	.	8d\J	.	8gg\J	.	(16aa\L	.	8G\	-tum	8d\	-tum	8g\	-tum	8b\	-tum	.	.	.	.	.	.	.	.	.	.
.	.	.	.	.	.	.	16bb\JJ)	.	.	.	.	.	.	.	.	.	.	.	.	.	.	.	.	.	.	.
!	!	!	!	!	!	!	!LO:LB:g=original	!	!	!	!	!	!	!	!	!	!	!	!	!	!	!	!	!	!	!
=20	=20	=20	=20	=20	=20	=20	=20	=20	=20	=20	=20	=20	=20	=20	=20	=20	=20	=20	=20	=20	=20	=20	=20	=20	=20	=20
!	!	!	!	!	!	!	!	!	!	!	!	!	!	!	!	!	!	!	!	!	!	!	!	!	!LO:SIC:v:s=4ff#	!
*	*	*	*	*	*	*	*	*	*	*ij	*	*	*	*ij	*	*ij	*	*	*	*	*	*	*	*	*	*
4A\	6\	.	8d\L	.	4ff#X\	.	8ccc\L|	.	4A\	u-	4d\	u-	4f#X\	u-	4cc\	u-	.	.	4dd\	4dd\	.	.	2cc\	.	4ff\	.
.	.	.	8d\	.	.	.	8ccc\J|	.	.	.	.	.	.	.	.	.	.	.	.	.	.	.	.	.	.	.
.	.	.	.	.	8qbb/	.	.	.	.	.	.	.	.	.	.	.	.	.	.	.	.	.	.	.	.	.
8F#X\L	6 5	.	8d\	.	8aa\L	.	4ccc\	.	4F#X\	-ni-	4d\	-ni-	4a\	-ni-	4dd\	-ni-	.	.	4dd\	4dd\	.	.	.	.	4aa\	.
16E\L	.	.	8d\J	.	(16gg\L	.	.	.	.	.	.	.	.	.	.	.	.	.	.	.	.	.	.	.	.	.
16F#\JJ	.	.	.	.	16aa\JJ)	.	.	.	.	.	.	.	.	.	.	.	.	.	.	.	.	.	.	.	.	.
!	!	!	!	!	!	!	!	!	!	!	!	!	!	!	!	!	!	!	!LO:LB:g=original	!	!	!	!	!	!	!
4G\	3	.	8d\L	.	8gg\L	.	(8bb\L	.	4G\	-ge-	4d\	-ge-	4g\	-ge-	4b\	-ge-	.	.	4g/	4dd\	.	.	2b\	.	2gg\	.
.	.	.	8d\	.	8g\	.	8b\)	.	.	.	.	.	.	.	.	.	.	.	.	.	.	.	.	.	.	.
4GG/	.	.	8d\	.	8gg\	.	8bb\|	.	8G\	-ni-	8d\	-ni-	8g\	-ni-	8b\	-ni-	.	.	4g/	4dd\	.	.	.	.	.	.
.	.	.	8d\J	.	8gg\J	.	8bb\J|	.	8G\	-tum	8d\	-tum	8g\	-tum	8b\	-tum	.	.	.	.	.	.	.	.	.	.
*	*	*	*Xtremolo	*	*	*	*	*	*	*Xij	*	*Xij	*	*Xij	*	*Xij	*	*	*	*	*	*	*	*	*	*
!	!	!	!	!	!LO:LB:g=original	!	!	!	!	!	!	!	!	!	!LO:PB:g=original	!	!	!	!	!	!	!	!	!	!	!
=21	=21	=21	=21	=21	=21	=21	=21	=21	=21	=21	=21	=21	=21	=21	=21	=21	=21	=21	=21	=21	=21	=21	=21	=21	=21	=21
*	*	*	*	*	*^	*	*	*	*	*	*	*	*	*	*	*	*	*	*	*	*	*	*	*	*	*
!	!	!	!	!	!	!	!	!	!	!	!	!	!	!	!	!	!	!	!	!	!	!	!	!	!	!LO:SIC:v:s=2.ff#	!
4D\	#_	.	4.d\	.	4ff#X/	1a 1d	.	(16aa\LL	.	4D/	fi-	8d\	fi-	4f#X\	fi-	4a\	fi-	.	.	4dd\	4dd\	.	.	2.a/	.	2.ff\	.
.	.	.	.	.	.	.	.	16bb\	.	.	.	.	.	.	.	.	.	.	.	.	.	.	.	.	.	.	.
.	.	.	.	.	.	.	.	16aa\	.	.	.	8d\	-li-	.	.	.	.	.	.	.	.	.	.	.	.	.	.
.	.	.	.	.	.	.	.	16bb\JJ)	.	.	.	.	.	.	.	.	.	.	.	.	.	.	.	.	.	.	.
4D\	.	.	.	.	4ff#/	.	.	8aa\L|	.	8D/	-li-	4d\	-um	8f#\	-li-	8a\	-li-	.	.	4dd\	4dd\	.	.	.	.	.	.
.	.	.	8A/	.	.	.	.	8ddd\J|	.	8D/	-um	.	.	8f#\	-um	8a\	-um	.	.	.	.	.	.	.	.	.	.
4D\	.	.	4.d\	.	4ff#/	.	.	(16aa\LL	.	4D/	De-	4d\	De-	4f#\	De-	4a\	De-	.	.	4dd\	4dd\	.	.	.	.	.	.
.	.	.	.	.	.	.	.	16bb\	.	.	.	.	.	.	.	.	.	.	.	.	.	.	.	.	.	.	.
.	.	.	.	.	.	.	.	16aa\	.	.	.	.	.	.	.	.	.	.	.	.	.	.	.	.	.	.	.
.	.	.	.	.	.	.	.	16bb\JJ)	.	.	.	.	.	.	.	.	.	.	.	.	.	.	.	.	.	.	.
!	!	!	!	!	!	!	!	!	!	!	!	!	!	!	!	!	!	!	!	!	!	!	!	!	!	!LO:SIC:v:s=4ff#	!
4D\	.	.	.	.	4ff#/	.	.	8aa\L|	.	4D/	-i	4d\	-i	4f#\	-i	4a\	-i	.	.	4dd\	4dd\	.	.	4a/	.	4ff\	.
.	.	.	8A/	.	.	.	.	8ddd\J|	.	.	.	.	.	.	.	.	.	.	.	.	.	.	.	.	.	.	.
*	*	*	*	*	*v	*v	*	*	*	*	*	*	*	*	*	*	*	*	*	*	*	*	*	*	*	*	*
!	!	!	!	!	!	!	!	!	!	!	!LO:LB:g=original	!	!	!	!	!	!	!	!	!LO:LB:g=original	!	!	!	!	!	!
=22	=22	=22	=22	=22	=22	=22	=22	=22	=22	=22	=22	=22	=22	=22	=22	=22	=22	=22	=22	=22	=22	=22	=22	=22	=22	=22
!	!	!	!	!	!	!	!	!	!	!	!	!	!LO:SIC:v:s=4f#	!	!	!	!	!	!	!	!	!	!	!	!LO:SIC:v:s=2.ff#	!
*	*	*	*	*	*	*	*	*	*	*ij	*	*ij	*	*ij	*	*ij	*	*	*	*	*	*	*	*	*	*
4C/	.	.	4A/	.	4dd 4d/	.	16ff#X\LL	.	4C/	fi-	4d\	fi-	4f\	fi-	4a\	fi-	00r	.	2.dd\	2.dd\	00r	.	2.a/	.	2.ff\	.
.	.	.	.	.	.	.	(16gg\	.	.	.	.	.	.	.	.	.	.	.	.	.	.	.	.	.	.	.
.	.	.	.	.	.	.	16aa\)	.	.	.	.	.	.	.	.	.	.	.	.	.	.	.	.	.	.	.
.	.	.	.	.	.	.	16bb\JJ	.	.	.	.	.	.	.	.	.	.	.	.	.	.	.	.	.	.	.
!	!	!	!	!	!	!	!	!	!	!	!	!	!LO:SIC:v:s=8f#	!	!	!	!	!	!	!	!	!	!	!	!	!
4C/	.	.	8d\L	.	4ff#X 4a 4d/	.	8aa\L|	.	8C/	-li-	8d\	-li-	8f\	-li-	8a\	-li-	.	.	.	.	.	.	.	.	.	.
!	!	!	!	!	!	!	!	!	!	!	!	!	!LO:SIC:v:s=8f#	!	!	!	!	!	!	!	!	!	!	!	!	!
.	.	.	8A\J	.	.	.	8ddd\J|	.	8C/	-um	8d\	-um	8f\	-um	8a\	-um	.	.	.	.	.	.	.	.	.	.
!	!	!	!	!	!	!	!	!	!	!	!	!	!LO:SIC:v:s=4f#	!	!	!	!	!	!	!	!	!	!	!	!	!
4C/	.	.	4A/	.	4dd 4d/	.	16ff#\LL	.	4C/	De-	4d\	De-	4f\	De-	4a\	De-	.	.	.	.	.	.	.	.	.	.
.	.	.	.	.	.	.	(16gg\	.	.	.	.	.	.	.	.	.	.	.	.	.	.	.	.	.	.	.
.	.	.	.	.	.	.	16aa\)	.	.	.	.	.	.	.	.	.	.	.	.	.	.	.	.	.	.	.
.	.	.	.	.	.	.	16bb\JJ	.	.	.	.	.	.	.	.	.	.	.	.	.	.	.	.	.	.	.
!	!	!	!	!	!	!	!	!	!	!	!	!	!LO:SIC:v:s=4f#	!	!	!	!	!	!	!	!	!	!	!	!LO:SIC:v:s=4ff#	!
4C/	.	.	8d\L	.	4ff# 4a 4d/	.	8aa\L|	.	4C/	-i	4d\	-i	4f\	-i	4a\	-i	.	.	4dd\	4dd\	.	.	4a/	.	4ff\	.
*	*	*	*	*	*	*	*	*	*	*Xij	*	*Xij	*	*Xij	*	*Xij	*	*	*	*	*	*	*	*	*	*
.	.	.	8d\J	.	.	.	8aa\J|	.	.	.	.	.	.	.	.	.	.	.	.	.	.	.	.	.	.	.
!LO:LB:g=original	!	!	!	!	!	!	!	!	!	!	!	!	!	!	!	!	!	!	!	!	!	!	!	!	!LO:LB:g=original	!
=23	=23	=23	=23	=23	=23	=23	=23	=23	=23	=23	=23	=23	=23	=23	=23	=23	=23	=23	=23	=23	=23	=23	=23	=23	=23	=23
*	*	*	*tremolo	*	*	*	*	*	*	*	*	*	*	*	*	*	*	*	*	*	*	*	*	*	*	*
8BB/L	6	.	8d\L	.	8gg\L	.	4gg\|	.	4BB/	u-	4d\	u-	4g\	u-	4b\	u-	.	.	2g/	2dd\	.	.	4dd\	.	2.gg\	.
8AA/	.	.	8d\	.	8gg\	.	.	.	.	.	.	.	.	.	.	.	.	.	.	.	.	.	.	.	.	.
8BB/	.	.	8d\	.	8gg\	.	4bb\|	.	4GG/	-ni-	4d\	-ni-	4g\	-ni-	4b\	-ni-	.	.	.	.	.	.	4b\	.	.	.
8GG/J	.	.	8d\J	.	8gg\J	.	.	.	.	.	.	.	.	.	.	.	.	.	.	.	.	.	.	.	.	.
*	*	*	*	*	*Xtremolo	*	*	*	*	*	*	*	*	*	*	*	*	*	*	*	*	*	*	*	*	*
!	!	!	!	!	!	!	!	!	!	!	!	!	!LO:LB:g=original	!	!	!	!	!	!	!	!	!	!	!	!	!
4D\	5 4	.	8d\L	.	8gg\L	.	4aa\|	.	4D/	-ge-	4d\	-ge-	4g\	-ge-	4a\	-ge-	.	.	4dd\	4dd\	.	.	2a/	.	.	.
.	.	.	8d\	.	8gg\	.	.	.	.	.	.	.	.	.	.	.	.	.	.	.	.	.	.	.	.	.
.	.	.	.	.	.	.	8qbb/	.	.	.	.	.	.	.	.	.	.	.	.	.	.	.	.	.	.	.
4D\	x #3r	.	8d\	.	8ff#X\	.	8aa\L	.	4D/	-ni-	4d\	-ni-	4f#X\	-ni-	4a\	-ni-	.	.	4dd\	4dd\	.	.	.	.	4ff#X\	.
.	.	.	8d\J	.	8ff#\J	.	(16gg\L	.	.	.	.	.	.	.	.	.	.	.	.	.	.	.	.	.	.	.
.	.	.	.	.	.	.	16aa\JJ)	.	.	.	.	.	.	.	.	.	.	.	.	.	.	.	.	.	.	.
=24	=24	=24	=24	=24	=24	=24	=24	=24	=24	=24	=24	=24	=24	=24	=24	=24	=24	=24	=24	=24	=24	=24	=24	=24	=24	=24
!	!	!	!	!	!	!	!	!	!	!	!	!	!	!	!	!	!	!	!	!	!	!	!LO:TX:a:t=Solo	!	!	!
2GG/	.	.	4d\	.	4gg\	.	4bb\	.	2G\	-tum	2d\	-tum	2g\	-tum	2b\	-tum	.	.	4g/	4dd\	.	.	4.b/	.	4.gg\	.
.	.	.	4r	.	8r	.	8r	.	.	.	.	.	.	.	.	.	.	.	4r	4r	.	.	.	.	.	.
.	.	.	.	.	8g/	.	8b/	.	.	.	.	.	.	.	.	.	.	.	.	.	.	.	8b/	.	8gg\	.
!LO:TX:a:t=Solo.	!	!LO:DY:t=po.	!LO:LB:g=original	!	!	!	!	!	!LO:LB:g=original	!	!	!	!LO:TX:a:t=Solo	!	!	!	!	!	!	!	!	!	!	!	!	!
2D\	.	p	8d\L	.	8f#X/L	.	(8a/L	.	2r	.	2r	.	2r	.	2r	.	.	.	2r	2r	.	.	(8a/L	.	8ff#X\L	.
.	.	.	8d\	.	(8e/	.	8cc/	.	.	.	.	.	.	.	.	.	.	.	.	.	.	.	8cc/	.	8ee\	.
.	.	.	8d\	.	8d/	.	8b/	.	.	.	.	.	.	.	.	.	.	.	.	.	.	.	8b/	.	8dd\	.
!	!	!	!	!	!	!	!	!	!	!	!	!	!	!	!LO:TX:a:t=Solo	!	!	!	!	!	!	!	!	!	!	!
.	.	.	8d\J	.	8f#/J)	.	8a/J)	.	.	.	.	.	.	.	.	.	.	.	.	.	.	.	8a/J)	.	8cc\J	.
!	!	!	!	!LO:DY:t=p&colon;	!	!	!	!	!	!	!	!	!	!	!	!	!	!	!	!	!	!	!	!	!	!
.	.	.	.	p	.	.	.	.	.	.	.	.	.	.	.	.	.	.	.	.	.	.	.	.	.	.
!	!	!	!	!	!	!	!LO:LB:g=original	!	!	!	!	!	!	!	!	!	!	!	!	!	!	!	!	!	!	!
=25	=25	=25	=25	=25	=25	=25	=25	=25	=25	=25	=25	=25	=25	=25	=25	=25	=25	=25	=25	=25	=25	=25	=25	=25	=25	=25
!	!	!	!	!	!	!LO:DY:a	!	!LO:DY:a	!	!	!	!	!	!	!	!	!	!	!	!	!	!	!LO:SIC:v:s=4g	!	!	!
4GG/	.	.	4d\	.	(16g/LL	p	16b\LL	p	00r	.	00r	.	4b\	Et	4dd\	Et	.	.	00r	00r	.	.	4f/	.	4b/	.
.	.	.	.	.	16a/	.	(16cc\	.	.	.	.	.	.	.	.	.	.	.	.	.	.	.	.	.	.	.
.	.	.	.	.	16g/	.	16b\	.	.	.	.	.	.	.	.	.	.	.	.	.	.	.	.	.	.	.
.	.	.	.	.	16a/JJ)	.	16cc\JJ)	.	.	.	.	.	.	.	.	.	.	.	.	.	.	.	.	.	.	.
4r	.	.	4r	.	8b/L	.	8dd\L|	.	.	.	.	.	4b\	ex	4dd\	ex	.	.	.	.	.	.	4r	.	4r	.
.	.	.	.	.	8b/J	.	8dd\J|	.	.	.	.	.	.	.	.	.	.	.	.	.	.	.	.	.	.	.
4GG/	.	.	4r	.	4b/	.	4dd\|	.	.	.	.	.	4b\	Pa-	4dd\	Pa-	.	.	.	.	.	.	2r	.	2r	.
4r	.	.	4G/	.	(8a/L	.	(8cc\L	.	.	.	.	.	(8a\L	-tre	(8cc\L	-tre	.	.	.	.	.	.	.	.	.	.
.	.	.	.	.	8g/J)	.	8b\J)	.	.	.	.	.	8g\J)	.	8b\J)	.	.	.	.	.	.	.	.	.	.	.
=26	=26	=26	=26	=26	=26	=26	=26	=26	=26	=26	=26	=26	=26	=26	=26	=26	=26	=26	=26	=26	=26	=26	=26	=26	=26	=26
8C\L	.	.	8c\L	.	4cc\	.	4ee\	.	.	.	.	.	2cc\	na-	2ee\	na-	00r	.	.	.	00r	.	00r	.	00r	.
8D\	.	.	8d\	.	.	.	.	.	.	.	.	.	.	.	.	.	.	.	.	.	.	.	.	.	.	.
8E\	.	.	8e\	.	8r	.	8r	.	.	.	.	.	.	.	.	.	.	.	.	.	.	.	.	.	.	.
8F#X\J	.	.	8f#X\J	.	8cc\	.	8ee\|	.	.	.	.	.	.	.	.	.	.	.	.	.	.	.	.	.	.	.
4G\	.	.	4g\	.	8b/L	.	4dd\	.	.	.	.	.	2b\	-tum	2dd\	-tum	.	.	.	.	.	.	.	.	.	.
.	.	.	.	.	8g/	.	.	.	.	.	.	.	.	.	.	.	.	.	.	.	.	.	.	.	.	.
4G\	.	.	4G/	.	8d/	.	8r	.	.	.	.	.	.	.	.	.	.	.	.	.	.	.	.	.	.	.
.	.	.	.	.	8b/J	.	8dd\|	.	.	.	.	.	.	.	.	.	.	.	.	.	.	.	.	.	.	.
!	!	!	!	!	!LO:LB:g=original	!	!	!	!	!	!	!	!	!	!	!	!	!	!	!	!	!	!	!	!	!
=27	=27	=27	=27	=27	=27	=27	=27	=27	=27	=27	=27	=27	=27	=27	=27	=27	=27	=27	=27	=27	=27	=27	=27	=27	=27	=27
4A\	6\	.	4A/	.	(8b/L	.	(8dd\L	.	.	.	.	.	(8b\L	an-	(8dd\L	an-	.	.	.	.	.	.	.	.	.	.
.	.	.	.	.	8a/)	.	8cc\)	.	.	.	.	.	8a\J)	.	8cc\J)	.	.	.	.	.	.	.	.	.	.	.
4F#X\	6 5	.	4d\	.	8a/|	.	8cc\|	.	.	.	.	.	4a\	-te	4cc\	-te	.	.	.	.	.	.	.	.	.	.
.	.	.	.	.	8a/J|	.	8cc\J|	.	.	.	.	.	.	.	.	.	.	.	.	.	.	.	.	.	.	.
!	!	!	!	!	!	!	!	!	!	!	!	!	!	!	!LO:LB:g=original	!	!	!	!	!	!	!	!	!	!	!
4G\	3_	.	4d\	.	(8a/L	.	(8cc\L	.	.	.	.	.	(8a\L	Om-	(8cc\L	om-	.	.	.	.	.	.	.	.	.	.
.	.	.	.	.	8g/)	.	8b\)	.	.	.	.	.	8g\J)	.	8b\J)	.	.	.	.	.	.	.	.	.	.	.
4GG/	.	.	4d\	.	8g/|	.	8b\|	.	.	.	.	.	8g\	-ni-	8b\|	-ni-	.	.	.	.	.	.	.	.	.	.
.	X	.	.	.	8g/J|	.	8b\J|	.	.	.	.	.	8g\	-a	8b\|	-a	.	.	.	.	.	.	.	.	.	.
=28	=28	=28	=28	=28	=28	=28	=28	=28	=28	=28	=28	=28	=28	=28	=28	=28	=28	=28	=28	=28	=28	=28	=28	=28	=28	=28
*	*	*	*	*	*tremolo	*	*tremolo	*	*	*	*	*	*	*	*	*	*	*	*	*	*	*	*	*	*	*
4D\	6 4	.	8d\L	.	8g/L	.	8b\L	.	.	.	.	.	4.g\	ſae-	4.b\	ſae-	.	.	.	.	.	.	.	.	.	.
.	.	.	8d\	.	8g/	.	8b\	.	.	.	.	.	.	.	.	.	.	.	.	.	.	.	.	.	.	.
4D\	5 #3r	.	8d\	.	8g/	.	8b\	.	.	.	.	.	.	.	.	.	.	.	.	.	.	.	.	.	.	.
.	.	.	8d\J	.	8g/J	.	8b\J	.	.	.	.	.	8g\	-cu-	8b\	-cu-	.	.	.	.	.	.	.	.	.	.
*	*	*	*Xtremolo	*	*Xtremolo	*	*Xtremolo	*	*	*	*	*	*	*	*	*	*	*	*	*	*	*	*	*	*	*
8D\L|	.	.	8d'\L	.	8f#X/L	.	8a/L	.	.	.	.	.	2f#X\	-la	2a\	-la	.	.	.	.	.	.	.	.	.	.
8F#X\|	.	.	8f#X'\	.	8f#/	.	8f#X/	.	.	.	.	.	.	.	.	.	.	.	.	.	.	.	.	.	.	.
8A\|	.	.	8a'\	.	8a/	.	8a/	.	.	.	.	.	.	.	.	.	.	.	.	.	.	.	.	.	.	.
8F#\J|	.	.	8f#'\J	.	8f#/J	.	8f#/J	.	.	.	.	.	.	.	.	.	.	.	.	.	.	.	.	.	.	.
!	!	!	!	!	!	!	!	!	!	!	!	!	!LO:LB:g=original	!	!	!	!	!	!	!	!	!	!	!	!	!
=29	=29	=29	=29	=29	=29	=29	=29	=29	=29	=29	=29	=29	=29	=29	=29	=29	=29	=29	=29	=29	=29	=29	=29	=29	=29	=29
4D/	.	.	4A/	.	4f#X/	.	4dd\|	.	00r	.	00r	.	4f#X\	De-	4dd\	De-	.	.	00r	00r	.	.	.	.	.	.
4r	.	.	4r	.	4r	.	4r	.	.	.	.	.	8e\	-um	8cc#X\|	-um	.	.	.	.	.	.	.	.	.	.
.	.	.	.	.	.	.	.	.	.	.	.	.	8f#\	de	8dd\|	de	.	.	.	.	.	.	.	.	.	.
!	!	!	!	!	!	!	!	!	!	!	!	!	!	!	!LO:SIC:v:s=8qff#	!	!	!	!	!	!	!	!	!	!	!
.	.	.	.	.	.	.	.	.	.	.	.	.	(8qqa/	.	8qqff/	.	.	.	.	.	.	.	.	.	.	.
4AA/	#	.	4A/	.	4e/	.	4cc#X\|	.	.	.	.	.	4g\)	De-	4ee\	De-	.	.	.	.	.	.	.	.	.	.
4r	.	.	4r	.	4r	.	4r	.	.	.	.	.	(8f#\L	.	(8dd\L	.	.	.	.	.	.	.	.	.	.	.
.	.	.	.	.	.	.	.	.	.	.	.	.	8e\J)	.	8cc#\J)	.	.	.	.	.	.	.	.	.	.	.
=30	=30	=30	=30	=30	=30	=30	=30	=30	=30	=30	=30	=30	=30	=30	=30	=30	=30	=30	=30	=30	=30	=30	=30	=30	=30	=30
!	!	!	!	!LO:DY:rj:t=fo	!	!LO:DY:rj:t=mfo&colon;	!	!LO:DY:a	!	!	!	!	!	!	!	!	!	!	!	!	!	!	!	!	!	!
4D\	x #	.	4A/	f	4f#X/	mf	4dd\	f	.	.	.	.	4f#X\	-o	4dd\	-o	00r	.	.	.	00r	.	4r	.	4r	.
!	!	!	!	!	!	!	!	!	!	!	!	!	!	!	!	!	!	!	!	!	!	!	!	!LO:DY:t=p&colon;	!	!LO:DY:t=p.
4D\	n7_ #_	.	4A/	.	(8d/L	.	8f#X/L	.	.	.	.	.	4r	.	4r	.	.	.	.	.	.	.	(4ccn'\	p	4ff#X'\	p
.	.	.	.	.	8f#/J)	.	8a/J	.	.	.	.	.	.	.	.	.	.	.	.	.	.	.	.	.	.	.
4D\	.	.	4A/	.	8f#/L	.	8a\L	.	.	.	.	.	2r	.	2r	.	.	.	.	.	.	.	4cc'\	.	4ff#'\	.
.	.	.	.	.	(8a/	.	(8ccn\	.	.	.	.	.	.	.	.	.	.	.	.	.	.	.	.	.	.	.
4D\	.	.	4A/	.	8a/	.	8cc\	.	.	.	.	.	.	.	.	.	.	.	.	.	.	.	4cc'\)	.	4ff#'\	.
.	X X	.	.	.	8cc/J)	.	8ee\J)	.	.	.	.	.	.	.	.	.	.	.	.	.	.	.	.	.	.	.
!LO:LB:g=original	!	!	!	!	!	!	!LO:LB:g=original	!	!	!	!	!	!	!	!	!	!	!	!	!	!	!	!	!	!	!
=31	=31	=31	=31	=31	=31	=31	=31	=31	=31	=31	=31	=31	=31	=31	=31	=31	=31	=31	=31	=31	=31	=31	=31	=31	=31	=31
!	!	!LO:DY:t=po.	!	!	!	!LO:DY:a	!	!LO:DY:a	!	!	!	!	!	!	!	!	!	!	!	!	!	!	!	!	!LO:SIC:v:s=4ff#	!
4D/	.	p	4d\	.	4a/	p	(4cc\	p	.	.	.	.	4a\	lu-	4ccn\	lu-	.	.	.	.	.	.	4cc\	.	4ff\	.
4r	.	.	4r	.	(8g#X/L	.	8b\L)	.	.	.	.	.	8g#X\	-men	8b\	-men	.	.	.	.	.	.	4r	.	4r	.
!	!	!	!	!	!LO:SIC:v:s=8g#	!	!	!	!	!	!	!	!	!	!	!	!	!	!	!	!	!	!	!	!	!
.	.	.	.	.	8a/J)	.	8b\J|	.	.	.	.	.	8g#\	de	8b\	De	.	.	.	.	.	.	.	.	.	.
4D/	.	.	4d\	.	4a/	.	(4cc\	.	.	.	.	.	(4a\	lu-	(4cc\	lu-	.	.	.	.	.	.	2r	.	2r	.
4r	.	.	4r	.	8g#X/L	.	8b\L)	.	.	.	.	.	8g#X\)	.	8b\)	.	.	.	.	.	.	.	.	.	.	.
.	.	.	.	.	8g#/J	.	8b\J|	.	.	.	.	.	8g#\	-mi-	8b\|	-mi-	.	.	.	.	.	.	.	.	.	.
!	!	!	!	!	!	!	!	!	!	!	!	!	!	!	!	!	!	!	!	!	!	!	!LO:LB:g=original	!	!	!
=32	=32	=32	=32	=32	=32	=32	=32	=32	=32	=32	=32	=32	=32	=32	=32	=32	=32	=32	=32	=32	=32	=32	=32	=32	=32	=32
!	!	!LO:DY:t=mfr.	!	!	!	!	!	!	!	!	!	!	!	!	!	!	!	!	!	!	!	!	!	!	!	!
4D/	7_ #_	mf	4d\	.	4a/	.	4cc/	.	.	.	.	.	4a\	-ne	4cc\	-ne	.	.	.	.	.	.	4r	.	4r	.
4D/	.	.	4d\	.	4f#X/	.	4a/	.	.	.	.	.	4r	.	4r	.	.	.	.	.	.	.	(2cc\	.	4ff#X\	.
.	.	.	.	.	.	.	.	.	.	.	.	.	.	.	.	.	.	.	.	.	.	.	.	.	8qqgg/	.
!	!	!	!LO:LB:g=original	!	!	!	!	!	!	!	!	!	!	!	!	!	!	!	!	!	!	!	!	!	!	!
4D/	.	.	4d\	.	4f#/	.	4a/	.	.	.	.	.	2r	.	2r	.	.	.	.	.	.	.	.	.	4ff#\	.
4D/	.	.	4d\	.	4f#/	.	4a/	.	.	.	.	.	.	.	.	.	.	.	.	.	.	.	4cc\)	.	8ee\L	.
.	X X	.	.	.	.	.	.	.	.	.	.	.	.	.	.	.	.	.	.	.	.	.	.	.	8ff#\J	.
!	!	!	!	!	!LO:LB:g=original	!	!	!	!	!	!	!	!	!	!	!	!	!	!	!	!	!	!	!	!	!
=33	=33	=33	=33	=33	=33	=33	=33	=33	=33	=33	=33	=33	=33	=33	=33	=33	=33	=33	=33	=33	=33	=33	=33	=33	=33	=33
!	!	!LO:DY:t=po.	!	!	!	!	!	!	!	!	!	!	!	!	!	!	!	!	!	!	!	!	!	!	!	!
4GG/	.	p	4d\	.	(8g/L	.	(8b\L	.	00r	.	00r	.	(4gn\	De-	4b\	De-	.	.	00r	00r	.	.	4b\	.	4gg\	.
.	.	.	.	.	8a/J)	.	8cc\)	.	.	.	.	.	.	.	.	.	.	.	.	.	.	.	.	.	.	.
4GG/	.	.	4r	.	8b/L	.	8dd\|	.	.	.	.	.	2b\)	.	2dd\	.	.	.	.	.	.	.	4r	.	4r	.
.	.	.	.	.	8b/J	.	8dd\J|	.	.	.	.	.	.	.	.	.	.	.	.	.	.	.	.	.	.	.
4GG/	.	.	2r	.	8a/L	.	4dd\	.	.	.	.	.	.	.	.	.	.	.	.	.	.	.	2r	.	2r	.
.	.	.	.	.	8b/	.	.	.	.	.	.	.	.	.	.	.	.	.	.	.	.	.	.	.	.	.
!	!	!	!	!	!	!	!	!	!	!	!	!	!	!	!LO:LB:g=original	!	!	!	!	!	!	!	!	!	!	!
4GG/	.	.	.	.	8a/	.	(8cc\L	.	.	.	.	.	(8a\L	-um	(8cc\L	-um	.	.	.	.	.	.	.	.	.	.
.	.	.	.	.	8g/J	.	8b\J)	.	.	.	.	.	8g\J)	.	8b\J)	.	.	.	.	.	.	.	.	.	.	.
=34	=34	=34	=34	=34	=34	=34	=34	=34	=34	=34	=34	=34	=34	=34	=34	=34	=34	=34	=34	=34	=34	=34	=34	=34	=34	=34
8D\L	#_	.	2d\	.	(8f#X/L	.	(8a\L	.	.	.	.	.	2f#X\	ve-	2a\	ve-	0r	.	.	.	00r	.	0r	.	0r	.
8E\	.	.	.	.	8a/)	.	8ff#X\)	.	.	.	.	.	.	.	.	.	.	.	.	.	.	.	.	.	.	.
8C\	.	.	.	.	8a/|	.	8ff#\|	.	.	.	.	.	.	.	.	.	.	.	.	.	.	.	.	.	.	.
8D\J	.	.	.	.	8a/J|	.	8ff#\J|	.	.	.	.	.	.	.	.	.	.	.	.	.	.	.	.	.	.	.
!	!	!	!	!	!	!	!LO:TX:t=P:problem=mixed beam	!	!	!	!	!LO:LB:g=original	!	!	!	!	!	!	!	!	!	!	!	!	!	!
4BB/	6	.	4r	.	8d/L	.	8gg\L	.	.	.	.	.	4g\	-rum	4b\	-rum	.	.	.	.	.	.	.	.	.	.
.	.	.	.	.	8d/	.	8gg\	.	.	.	.	.	.	.	.	.	.	.	.	.	.	.	.	.	.	.
8AA/L	.	.	4d\	.	8g/	.	8b/	.	.	.	.	.	4g\	de	4b\	de	.	.	.	.	.	.	.	.	.	.
8GG/J	.	.	.	.	8g/J	.	8b/J	.	.	.	.	.	.	.	.	.	.	.	.	.	.	.	.	.	.	.
=35	=35	=35	=35	=35	=35	=35	=35	=35	=35	=35	=35	=35	=35	=35	=35	=35	=35	=35	=35	=35	=35	=35	=35	=35	=35	=35
*	*	*	*	*	*tremolo	*	*	*	*	*	*	*	*	*	*	*	*	*	*	*	*	*	*	*	*	*
4C/	6_ 5_	.	4e\	.	8g/L	.	8a/L|	.	.	.	.	.	4g\	De-	4a\	De-	.	.	.	.	.	.	.	.	.	.
.	.	.	.	.	8g/	.	(16cc/L	.	.	.	.	.	.	.	.	.	.	.	.	.	.	.	.	.	.	.
.	.	.	.	.	.	.	16b/JJ)	.	.	.	.	.	.	.	.	.	.	.	.	.	.	.	.	.	.	.
4AA/	.	.	4e\	.	8g/	.	8cc/L	.	.	.	.	.	4g\	-o	4a\	-o	.	.	.	.	.	.	.	.	.	.
.	.	.	.	.	8g/J	.	(16b/L	.	.	.	.	.	.	.	.	.	.	.	.	.	.	.	.	.	.	.
*	*	*	*	*	*Xtremolo	*	*	*	*	*	*	*	*	*	*	*	*	*	*	*	*	*	*	*	*	*
.	.	.	.	.	.	.	16a/JJ)	.	.	.	.	.	.	.	.	.	.	.	.	.	.	.	.	.	.	.
4D\	x 4	.	4d\	.	8g/L	.	8b/L|	.	.	.	.	.	(4g\	ve-	(4b\	ve-	.	.	.	.	.	.	.	.	.	.
.	x 3	.	.	.	8g/	.	8b/|	.	.	.	.	.	.	.	.	.	.	.	.	.	.	.	.	.	.	.
4DD/	.	.	4d\	.	8f#X/	.	8a/|	.	.	.	.	.	4f#X\)	.	4a\)	.	.	.	.	.	.	.	.	.	.	.
.	.	.	.	.	8f#/J	.	8a/J|	.	.	.	.	.	.	.	.	.	.	.	.	.	.	.	.	.	.	.
=36	=36	=36	=36	=36	=36	=36	=36	=36	=36	=36	=36	=36	=36	=36	=36	=36	=36	=36	=36	=36	=36	=36	=36	=36	=36	=36
4GG/	.	.	4d\	.	4.g/	.	(8b/L	.	.	.	.	.	4g\	-ro	4b\|	-ro	1r	.	.	.	.	.	4r	.	4r	.
!	!	!	!	!	!	!	!	!LO:DY:t=mf&colon;	!	!	!	!	!	!	!	!	!	!	!	!	!	!	!	!	!	!
.	.	.	.	.	.	.	8g/)	mf	.	.	.	.	.	.	.	.	.	.	.	.	.	.	.	.	.	.
!	!	!	!	!	!	!	!	!	!	!	!	!	!	!	!	!	!	!	!	!	!	!	!	!LO:DY:t=for	!	!
4G\	.	.	4r	.	.	.	8d/|	.	.	.	.	.	4r	.	4r	.	.	.	.	.	.	.	4b/	f	4gg\	.
.	.	.	.	.	8g/	.	8b/J|	.	.	.	.	.	.	.	.	.	.	.	.	.	.	.	.	.	.	.
!	!	!	!	!LO:DY:t=fo	!	!LO:DY:a	!	!	!	!	!	!	!	!	!	!	!	!	!	!	!	!	!	!	!	!
2D\	#	.	2d\	f	(8f#X/L	f	(8a/L	.	.	.	.	.	2r	.	2r	.	.	.	.	.	.	.	(8a/L	.	(8ff#X\L	.
.	.	.	.	.	8g/	.	8b/	.	.	.	.	.	.	.	.	.	.	.	.	.	.	.	8b/	.	8gg\	.
.	.	.	.	.	8a/	.	8cc/	.	.	.	.	.	.	.	.	.	.	.	.	.	.	.	8cc/	.	8aa\	.
.	.	.	.	.	8f#/J)	.	8a/J)	.	.	.	.	.	.	.	.	.	.	.	.	.	.	.	8a/J)	.	8ff#\J)	.
!	!	!	!	!	!	!	!LO:LB:g=original	!	!	!	!	!	!	!	!	!	!	!	!	!	!	!	!	!	!	!
=37	=37	=37	=37	=37	=37	=37	=37	=37	=37	=37	=37	=37	=37	=37	=37	=37	=37	=37	=37	=37	=37	=37	=37	=37	=37	=37
!LO:TX:a:t=T&colon;	!	!	!	!	!	!LO:DY:a	!	!LO:DY:a	!LO:TX:a:t=T&colon;	!	!LO:TX:a:t=T&colon;	!	!LO:TX:a:t=T&colon;	!	!LO:TX:a:t=T&colon;	!	!	!	!	!	!	!	!	!	!	!
8GG/L	5_	.	4d\	.	4g/	f	4b\	f	4.G\	ge-	4.d\	ge-	4.g\	ge-	4.b\	ge-	4GG/	.	4g/	4dd\	.	.	2b/	.	2gg\	.
!	!	!LO:DY:t=for	!	!	!	!	!	!	!	!	!	!	!	!	!	!	!	!	!	!	!	!	!	!	!	!
8AA/	.	f	.	.	.	.	.	.	.	.	.	.	.	.	.	.	.	.	.	.	.	.	.	.	.	.
8BB/	.	.	4d\	.	4g/	.	8bb\L|	.	.	.	.	.	.	.	.	.	4r	.	4g/	4dd\	.	.	.	.	.	.
8C/J	.	.	.	.	.	.	(16aa\L	.	8G\	-ni-	8d\	-ni-	8g\	-ni-	8b\	-ni-	.	.	.	.	.	.	.	.	.	.
.	.	.	.	.	.	.	16bb\JJ)	.	.	.	.	.	.	.	.	.	.	.	.	.	.	.	.	.	.	.
4D/	#_	.	4d\	.	4f#X/	.	4aa\	.	4D/	-tum	4d\	-tum	4f#X\	-tum	4a\	-tum	2r	.	2dd\	2dd\	.	.	2a/	.	2ff#X\	.
.	.	.	.	.	.	.	8qgg/	.	.	.	.	.	.	.	.	.	.	.	.	.	.	.	.	.	.	.
4D/	.	.	4d\	.	4a/	.	8ff#X\L	.	4D/	non	4d\	n(on)	4f#\	n(on)	4a\	n(on)	.	.	.	.	.	.	.	.	.	.
.	.	.	.	.	.	.	(16ee\L	.	.	.	.	.	.	.	.	.	.	.	.	.	.	.	.	.	.	.
.	.	.	.	.	.	.	16ff#\JJ)	.	.	.	.	.	.	.	.	.	.	.	.	.	.	.	.	.	.	.
!	!	!	!	!	!	!	!	!	!	!	!	!	!	!	!	!	!	!	!	!	!	!	!	!	!LO:LB:g=original	!
=38	=38	=38	=38	=38	=38	=38	=38	=38	=38	=38	=38	=38	=38	=38	=38	=38	=38	=38	=38	=38	=38	=38	=38	=38	=38	=38
!	!	!	!	!	!	!	!	!	!	!	!	!	!LO:SIC:v:s=4f#	!	!	!	!	!	!	!	!	!	!	!	!	!
8D/L	.	.	4d\	.	2ff#X 2a 2d/	.	2aa\	.	4D/	fa-	4d\	fa-	4f\	fa-	4a\	fa-	2r	.	4dd\	4dd\	00r	.	2a/	.	2ff#X\	.
8C/	.	.	.	.	.	.	.	.	.	.	.	.	.	.	.	.	.	.	.	.	.	.	.	.	.	.
!	!	!	!	!	!	!	!	!	!	!	!	!	!LO:SIC:v:s=4f#	!	!	!	!	!	!	!	!	!	!	!	!	!
8BB/	.	.	4d\	.	.	.	.	.	4D/	-ctum	4d\	-ctum	4f\	-ctum	4a\	-ctum	.	.	4dd\	4dd\	.	.	.	.	.	.
8AA/J	.	.	.	.	.	.	.	.	.	.	.	.	.	.	.	.	.	.	.	.	.	.	.	.	.	.
4GG/	5	.	4d\	.	4gg\	.	4bb\	.	4G\	Con-	4d\	con-	4g\	con-	4b\	con-	4r	.	2g/	2dd\	.	.	2b/	.	2gg\	.
.	.	.	.	.	8qaa/	.	8qccc/	.	.	.	.	.	.	.	.	.	.	.	.	.	.	.	.	.	.	.
!	!	!	!	!	!	!	!	!	!	!	!LO:LB:g=original	!	!	!	!	!	!	!	!	!	!	!	!	!	!	!
4G\	.	.	4d\	.	8gg\L	.	8bb\L	.	4G\	-ſub-	4d\	-ſub-	4g\	-ſub-	4b\	-sub-	4GG/	.	.	.	.	.	.	.	.	.
.	.	.	.	.	(16ff#\L	.	(16aa\L	.	.	.	.	.	.	.	.	.	.	.	.	.	.	.	.	.	.	.
.	.	.	.	.	16gg\JJ)	.	16bb\JJ)	.	.	.	.	.	.	.	.	.	.	.	.	.	.	.	.	.	.	.
!LO:LB:g=original	!	!	!	!	!LO:LB:g=original	!	!	!	!	!	!	!	!	!	!	!	!	!	!	!	!	!	!	!	!	!
=39	=39	=39	=39	=39	=39	=39	=39	=39	=39	=39	=39	=39	=39	=39	=39	=39	=39	=39	=39	=39	=39	=39	=39	=39	=39	=39
*	*	*	*	*	*tremolo	*	*tremolo	*	*	*	*	*	*	*	*	*	*	*	*	*	*	*	*	*	*	*
4C/	6 5	.	4e\	.	8gg\L	.	8aa\L	.	4.C/	-stan-	4.e\	-ſtan-	4.g\	-stan-	4.a\	-stan-	4C/	.	4g/	4ee\	.	.	2a/	.	2.gg\	.
.	.	.	.	.	8gg\	.	8aa\	.	.	.	.	.	.	.	.	.	.	.	.	.	.	.	.	.	.	.
4C/	.	.	4e\	.	8gg\	.	8aa\	.	.	.	.	.	.	.	.	.	4r	.	4r	4r	.	.	.	.	.	.
.	.	.	.	.	8gg\J	.	8aa\J	.	8C/	-ti-	8e\	-ti-	8g\	-ti-	8a\	-ti-	.	.	.	.	.	.	.	.	.	.
*	*	*	*	*	*Xtremolo	*	*Xtremolo	*	*	*	*	*	*	*	*	*	*	*	*	*	*	*	*	*	*	*
4D/	X 4	.	4d\	.	8gg\L	.	8bb\L|	.	4D/	-a-	4d\	-a-	4g\	-a-	4b\	-a-	2r	.	4r	4r	.	.	4b/	.	.	.
.	.	.	.	.	8gg\	.	8bb\|	.	.	.	.	.	.	.	.	.	.	.	.	.	.	.	.	.	.	.
4D/	X #3r	.	4d\	.	8ff#X\	.	8aa\|	.	4D/	-lem	4d\	-lem	4f#X\	-lem	4a\	-lem	.	.	4dd\	4dd\	.	.	4a/	.	4ff#X\	.
.	.	.	.	.	8ff#\J	.	8aa\J|	.	.	.	.	.	.	.	.	.	.	.	.	.	.	.	.	.	.	.
=40	=40	=40	=40	=40	=40	=40	=40	=40	=40	=40	=40	=40	=40	=40	=40	=40	=40	=40	=40	=40	=40	=40	=40	=40	=40	=40
4.G\	.	.	4.d\	.	4.gg\	.	4.bb\	.	4G\	Pa-	4d\	Pa-	4g\	Pa-	4b\	Pa-	4GG/	.	4g/	4dd\	.	.	4b/	.	4gg\	.
.	.	.	.	.	.	.	.	.	4G\	-tri	4d\	-tri	4g\	-tri	4b\	-tri	4r	.	4r	4r	.	.	4r	.	4r	.
8B\|	.	.	8B/	.	8b/	.	8b/	.	.	.	.	.	.	.	.	.	.	.	.	.	.	.	.	.	.	.
8d\L|	.	.	8d/L	.	8dd\L|	.	8dd\L|	.	2r	.	2r	.	2r	.	2r	.	2r	.	2r	2r	.	.	2r	.	2r	.
8d\|	.	.	8d/	.	8dd\|	.	8dd\|	.	.	.	.	.	.	.	.	.	.	.	.	.	.	.	.	.	.	.
8d\|	.	.	8d/	.	8dd\|	.	8dd\|	.	.	.	.	.	.	.	.	.	.	.	.	.	.	.	.	.	.	.
8B\J|	.	.	8B/J	.	8b\J|	.	8b\J|	.	.	.	.	.	.	.	.	.	.	.	.	.	.	.	.	.	.	.
!	!	!	!LO:LB:g=original	!	!	!	!	!	!	!	!	!	!LO:LB:g=original	!	!LO:LB:g=original	!	!	!	!	!	!	!	!	!	!	!
=41	=41	=41	=41	=41	=41	=41	=41	=41	=41	=41	=41	=41	=41	=41	=41	=41	=41	=41	=41	=41	=41	=41	=41	=41	=41	=41
!LO:TX:a:t=P:problem=nadmiarowe pauzy w clar princ	!	!	!LO:TX:a:t=P:problem=nadmiarowe pauzy w clar princ	!	!LO:TX:a:t=P:problem=nadmiarowe pauzy w clar princ	!	!LO:TX:a:t=P:problem=nadmiarowe pauzy w clar princ	!	!LO:TX:a:t=P:problem=nadmiarowe pauzy w clar princ	!	!LO:TX:a:t=P:problem=nadmiarowe pauzy w clar princ	!	!LO:TX:a:t=P:problem=nadmiarowe pauzy w clar princ	!	!LO:TX:a:t=P:problem=nadmiarowe pauzy w clar princ	!	!LO:TX:a:t=P:problem=nadmiarowe pauzy w clar princ	!	!LO:TX:a:t=P:problem=nadmiarowe pauzy w clar princ	!LO:TX:a:t=P:problem=nadmiarowe pauzy w clar princ	!	!	!LO:TX:a:t=P:problem=nadmiarowe pauzy w clar princ	!	!LO:TX:a:t=P:problem=nadmiarowe pauzy w clar princ	!
1ryy	.	.	1ryy	.	1ryy	.	1ryy	.	1ryy	.	1ryy	.	1ryy	.	1ryy	.	1ryy	.	1ryy	1ryy	.	.	1ryy	.	1ryy	.
=42	=42	=42	=42	=42	=42	=42	=42	=42	=42	=42	=42	=42	=42	=42	=42	=42	=42	=42	=42	=42	=42	=42	=42	=42	=42	=42
1ryy	.	.	1ryy	.	1ryy	.	1ryy	.	1ryy	.	1ryy	.	1ryy	.	1ryy	.	1ryy	.	1ryy	1ryy	00r	.	1ryy	.	1ryy	.
=43	=43	=43	=43	=43	=43	=43	=43	=43	=43	=43	=43	=43	=43	=43	=43	=43	=43	=43	=43	=43	=43	=43	=43	=43	=43	=43
1ryy	.	.	1ryy	.	1ryy	.	1ryy	.	1ryy	.	1ryy	.	1ryy	.	1ryy	.	1ryy	.	1ryy	1ryy	.	.	1ryy	.	1ryy	.
=44	=44	=44	=44	=44	=44	=44	=44	=44	=44	=44	=44	=44	=44	=44	=44	=44	=44	=44	=44	=44	=44	=44	=44	=44	=44	=44
1ryy	.	.	1ryy	.	1ryy	.	1ryy	.	1ryy	.	1ryy	.	1ryy	.	1ryy	.	1ryy	.	1ryy	1ryy	.	.	1ryy	.	1ryy	.
=45	=45	=45	=45	=45	=45	=45	=45	=45	=45	=45	=45	=45	=45	=45	=45	=45	=45	=45	=45	=45	=45	=45	=45	=45	=45	=45
1ryy	.	.	1ryy	.	1ryy	.	1ryy	.	1ryy	.	1ryy	.	1ryy	.	1ryy	.	1ryy	.	1ryy	1ryy	.	.	1ryy	.	1ryy	.
=46	=46	=46	=46	=46	=46	=46	=46	=46	=46	=46	=46	=46	=46	=46	=46	=46	=46	=46	=46	=46	=46	=46	=46	=46	=46	=46
1ryy	.	.	1ryy	.	1ryy	.	1ryy	.	1ryy	.	1ryy	.	1ryy	.	1ryy	.	1ryy	.	1ryy	1ryy	00r	.	1ryy	.	1ryy	.
=47	=47	=47	=47	=47	=47	=47	=47	=47	=47	=47	=47	=47	=47	=47	=47	=47	=47	=47	=47	=47	=47	=47	=47	=47	=47	=47
1ryy	.	.	1ryy	.	1ryy	.	1ryy	.	1ryy	.	1ryy	.	1ryy	.	1ryy	.	1ryy	.	1ryy	1ryy	.	.	1ryy	.	1ryy	.
=48	=48	=48	=48	=48	=48	=48	=48	=48	=48	=48	=48	=48	=48	=48	=48	=48	=48	=48	=48	=48	=48	=48	=48	=48	=48	=48
1ryy	.	.	1ryy	.	1ryy	.	1ryy	.	1ryy	.	1ryy	.	1ryy	.	1ryy	.	1ryy	.	1ryy	1ryy	.	.	1ryy	.	1ryy	.
=49	=49	=49	=49	=49	=49	=49	=49	=49	=49	=49	=49	=49	=49	=49	=49	=49	=49	=49	=49	=49	=49	=49	=49	=49	=49	=49
1ryy	.	.	1ryy	.	1ryy	.	1ryy	.	1ryy	.	1ryy	.	1ryy	.	1ryy	.	1ryy	.	1ryy	1ryy	.	.	1ryy	.	1ryy	.
=50	=50	=50	=50	=50	=50	=50	=50	=50	=50	=50	=50	=50	=50	=50	=50	=50	=50	=50	=50	=50	=50	=50	=50	=50	=50	=50
1ryy	.	.	1ryy	.	1ryy	.	1ryy	.	1ryy	.	1ryy	.	1ryy	.	1ryy	.	1ryy	.	1ryy	1ryy	0r	.	1ryy	.	1ryy	.
=51	=51	=51	=51	=51	=51	=51	=51	=51	=51	=51	=51	=51	=51	=51	=51	=51	=51	=51	=51	=51	=51	=51	=51	=51	=51	=51
1ryy	.	.	1ryy	.	1ryy	.	1ryy	.	1ryy	.	1ryy	.	1ryy	.	1ryy	.	1ryy	.	1ryy	1ryy	.	.	1ryy	.	1ryy	.
=52	=52	=52	=52	=52	=52	=52	=52	=52	=52	=52	=52	=52	=52	=52	=52	=52	=52	=52	=52	=52	=52	=52	=52	=52	=52	=52
!	!	!	!	!	!	!	!	!	!	!	!	!	!	!	!	!	!	!	!	!	!	!LO:DY:rj:t=fo	!	!	!	!
4G\	.	.	4G/	.	4b 4d 4G/	.	4gg 4b 4d/	.	4G\	per	4d\	per	4g\	per	4b\	per	4GG/	.	4g/	4dd\	4g/	f	4b/	.	4dd\	.
4r	.	.	4r	.	4r	.	4r	.	4G\	quem	4d\	quem	4g\	quem	4b\	quem	8.GG/L	.	8.g/L	8.dd\L	8.g/L	.	4b/	.	4dd\	.
.	.	.	.	.	.	.	.	.	.	.	.	.	.	.	.	.	16GG/Jk	.	16g/Jk	16dd\Jk	16g/Jk	.	.	.	.	.
2r	.	.	2r	.	2r	.	2r	.	4G\	Om-	4d\	om-	4g\	om-	4b\	om-	4GG/	.	4g/	4dd\	4g/	.	4b/	.	4dd\	.
.	.	.	.	.	.	.	.	.	8G\	-ni-	8d\	-ni-	8g\	-ni-	8b\	-ni-	4GG/	.	4g/	4dd\	4g/	.	4b/	.	4dd\	.
.	.	.	.	.	.	.	.	.	8G\	-a	8d\	-a	8g\	-a	8b\	-a	.	.	.	.	.	.	.	.	.	.
!	!	!	!	!	!	!	!	!	!LO:LB:g=original	!	!	!	!	!	!	!	!	!	!	!	!	!	!	!	!	!
=53	=53	=53	=53	=53	=53	=53	=53	=53	=53	=53	=53	=53	=53	=53	=53	=53	=53	=53	=53	=53	=53	=53	=53	=53	=53	=53
8r	.	.	8r	.	8r	.	8r	.	4.G\	fa-	4.d\	fa-	4.g\	fa-	4.b\	fa-	4GG/	.	4g/	4dd\	4g/	.	1b	.	1dd	.
8GG/L	5_	.	8G/L	.	8dd\L	.	8bb\L|	.	.	.	.	.	.	.	.	.	.	.	.	.	.	.	.	.	.	.
8BB/	.	.	8G/	.	8dd\	.	8bb\|	.	.	.	.	.	.	.	.	.	4GG/	.	4g/	4dd\	8.g/L	.	.	.	.	.
8D/J	.	.	8G/J	.	8dd\J	.	8bb\J|	.	8G\	-cta	8d\	-cta	8g\	-cta	8b\	-cta	.	.	.	.	.	.	.	.	.	.
!	!	!	!	!	!LO:TX:t=P:problem=nadliczbowa kreska taktowa	!	!	!	!	!	!	!	!	!	!	!	!	!	!	!	!	!	!	!	!	!
.	.	.	.	.	.	.	.	.	.	.	.	.	.	.	.	.	.	.	.	.	16g/Jk	.	.	.	.	.
*	*	*	*tremolo	*	*	*	*	*	*	*	*	*	*	*	*	*	*	*	*	*	*	*	*	*	*	*
8G\L	X	.	8G/L	.	8dd\L	.	8bb\L|	.	2G\	ſunt	2d\	ſunt	2g\	ſunt	2b\	ſunt	4GG/	.	2g/	2dd\	2g/	.	.	.	.	.
8Fn\	.	.	8G/	.	8dd\	.	8bb\J|	.	.	.	.	.	.	.	.	.	.	.	.	.	.	.	.	.	.	.
.	.	.	.	.	.	.	8qccc/	.	.	.	.	.	.	.	.	.	.	.	.	.	.	.	.	.	.	.
8E\	.	.	8G/	.	8ffn\	.	8bb\L	.	.	.	.	.	.	.	.	.	4GG/	.	.	.	.	.	.	.	.	.
8D\J	.	.	8G/J	.	8ff\J	.	(16aa\L	.	.	.	.	.	.	.	.	.	.	.	.	.	.	.	.	.	.	.
*	*	*	*Xtremolo	*	*	*	*	*	*	*	*	*	*	*	*	*	*	*	*	*	*	*	*	*	*	*
.	.	.	.	.	.	.	16bb\JJ)	.	.	.	.	.	.	.	.	.	.	.	.	.	.	.	.	.	.	.
!	!	!	!	!	!	!	!	!	!	!	!	!	!	!	!	!	!	!	!LO:LB:g=original	!	!	!	!	!	!	!
=54	=54	=54	=54	=54	=54	=54	=54	=54	=54	=54	=54	=54	=54	=54	=54	=54	=54	=54	=54	=54	=54	=54	=54	=54	=54	=54
*	*	*	*	*	*	*	*	*	*	*	*	*	*	*ij	*	*ij	*	*	*	*	*	*	*	*	*	*
4C/	.	.	4G/	.	4ee\	.	4ccc\	.	4C/	per	4e\	per	4g\	per	4cc\	per	4C/	.	4cc\	4ee\	4g/	.	4cc\	.	4ee\	.
4r	.	.	4r	.	4r	.	4r	.	4C/	quem	4e\	quem	4g\	quem	4cc\	quem	8.C/L	.	8.c/L	8.ee\L	8.g/L	.	4g/	.	4ee\	.
.	.	.	.	.	.	.	.	.	.	.	.	.	.	.	.	.	16C/Jk	.	16c/Jk	16ee\Jk	16g/Jk	.	.	.	.	.
2r	.	.	2r	.	2r	.	2r	.	4C/	Om-	4e\	Om-	4g\	Om-	4cc\	om-	4C/	.	4c/	4ee\	4g/	.	4g/	.	4ee\	.
!	!	!	!	!	!	!	!	!	!	!	!LO:LB:g=original	!	!	!	!	!	!	!	!	!	!	!	!	!	!	!
.	.	.	.	.	.	.	.	.	8C/	-ni-	8e\	-ni-	8g\	-ni-	8cc\	-ni-	4C/	.	4c/	4ee\	4g/	.	4g/	.	4ee\	.
.	.	.	.	.	.	.	.	.	8C/	-a	8e\	-a	8g\	-a	8cc\	-a	.	.	.	.	.	.	.	.	.	.
!	!	!	!	!	!	!	!LO:PB:g=original	!	!	!	!	!	!	!	!	!	!LO:LB:g=original	!	!	!LO:LB:g=original	!	!	!LO:LB:g=original	!	!	!
=55	=55	=55	=55	=55	=55	=55	=55	=55	=55	=55	=55	=55	=55	=55	=55	=55	=55	=55	=55	=55	=55	=55	=55	=55	=55	=55
8r	5_	.	8r	.	8r	.	8r	.	4.C/	fa-	4.e\	fa-	4.g\	fa-	4.cc\	fa-	4C/	.	4c/	4ee\	4g/	.	2.g/	.	2.ee\	.
8C\L	.	.	8G/L	.	8ee\L	.	8ccc\L|	.	.	.	.	.	.	.	.	.	.	.	.	.	.	.	.	.	.	.
8E\	.	.	8G/	.	8ee\	.	8ccc\|	.	.	.	.	.	.	.	.	.	4C/	.	4c/	4ee\	4g/	.	.	.	.	.
8G\J	.	.	8G/J	.	8ee\J	.	8ccc\J|	.	8C/	-cta	8e\	-cta	8g\	-cta	8cc\	-cta	.	.	.	.	.	.	.	.	.	.
*	*	*	*tremolo	*	*	*	*	*	*	*	*	*	*	*	*	*	*	*	*	*	*	*	*	*	*	*
8c\L	X	.	8G/L	.	8ee\L	.	8ccc\L|	.	2C/	ſ(u)nt	2e\	ſunt	2g\	ſunt	2cc\	ſunt	4C/	.	4c/	4ee\	4g/	.	.	.	.	.
*	*	*	*	*	*	*	*	*	*	*	*	*	*	*Xij	*	*Xij	*	*	*	*	*	*	*	*	*	*
8G\	.	.	8G/	.	8ee\J	.	8ccc\J|	.	.	.	.	.	.	.	.	.	.	.	.	.	.	.	.	.	.	.
.	.	.	.	.	8qff/	.	8qddd/	.	.	.	.	.	.	.	.	.	.	.	.	.	.	.	.	.	.	.
8E\	.	.	8G/	.	8ee\L	.	8ccc\L	.	.	.	.	.	.	.	.	.	4C/	.	4c/	4ee\	4g/	.	4g/	.	4ee\	.
8C\J	.	.	8G/J	.	(16dd\L	.	(16bb\L	.	.	.	.	.	.	.	.	.	.	.	.	.	.	.	.	.	.	.
.	.	.	.	.	16ee\JJ)	.	16ccc\JJ)	.	.	.	.	.	.	.	.	.	.	.	.	.	.	.	.	.	.	.
!	!	!	!	!	!LO:LB:g=original	!	!	!	!	!	!	!	!	!	!	!	!	!	!	!	!	!	!	!	!	!
=56	=56	=56	=56	=56	=56	=56	=56	=56	=56	=56	=56	=56	=56	=56	=56	=56	=56	=56	=56	=56	=56	=56	=56	=56	=56	=56
!	!	!	!	!	!LO:TX:t=P:problem=mixed beam	!	!	!	!	!	!	!	!	!	!	!	!	!	!	!	!	!	!	!	!	!
4E\	6_ -5_	.	8c\L	.	8gg\L	.	16bb-X\LL	.	4E\	qui	4c\	qui	4g\	qui	4b-X\	qui	4C/	.	4c/	4cc\	1g	.	1g	.	1cc	.
.	.	.	.	.	.	.	(16aa\	.	.	.	.	.	.	.	.	.	.	.	.	.	.	.	.	.	.	.
.	.	.	8c\	.	8b-X/	.	16gg\	.	.	.	.	.	.	.	.	.	.	.	.	.	.	.	.	.	.	.
.	.	.	.	.	.	.	16ff\JJ)	.	.	.	.	.	.	.	.	.	.	.	.	.	.	.	.	.	.	.
4E\	.	.	8c\	.	8b-/	.	8.ee\L	.	4E\	p(ro)p-	4c\	p(ro)p-	4g\	p(ro)p-	4b-\	p(ro)p-	4r	.	4c/	4cc\	.	.	.	.	.	.
.	.	.	8c\J	.	8b-/J	.	.	.	.	.	.	.	.	.	.	.	.	.	.	.	.	.	.	.	.	.
.	.	.	.	.	.	.	16ee\Jk	.	.	.	.	.	.	.	.	.	.	.	.	.	.	.	.	.	.	.
4E\	.	.	8c\L	.	8b-/L|	.	16gg\LL	.	4E\	-ter	4c\	-ter	4g\	-ter	4b-\	-ter	2r	.	4c/	4cc\	.	.	.	.	.	.
.	.	.	.	.	.	.	(16ff\	.	.	.	.	.	.	.	.	.	.	.	.	.	.	.	.	.	.	.
.	.	.	8c\	.	8b-/|	.	16ee\	.	.	.	.	.	.	.	.	.	.	.	.	.	.	.	.	.	.	.
.	.	.	.	.	.	.	16dd\JJ)	.	.	.	.	.	.	.	.	.	.	.	.	.	.	.	.	.	.	.
4E\	.	.	8c\	.	(8b-/	.	8.cc\L	.	4E\	nos	4c\	noſ	4g\	noſ	4b-\	noſ	.	.	4c/	4cc\	.	.	.	.	.	.
.	.	.	8c\J	.	8g/J)	.	.	.	.	.	.	.	.	.	.	.	.	.	.	.	.	.	.	.	.	.
.	X X	.	.	.	.	.	16b-X\Jk	.	.	.	.	.	.	.	.	.	.	.	.	.	.	.	.	.	.	.
*	*	*	*Xtremolo	*	*	*	*	*	*	*	*	*	*	*	*	*	*	*	*	*	*	*	*	*	*	*
=57	=57	=57	=57	=57	=57	=57	=57	=57	=57	=57	=57	=57	=57	=57	=57	=57	=57	=57	=57	=57	=57	=57	=57	=57	=57	=57
4F\	.	.	8c/L	.	(8f/L	.	8a\L|	.	4.F\	ho-	4.c\	ho-	4.fn\	ho-	4.a\	ho-	1r	.	4c/	4cc\	1c	.	1a	.	1cc	.
.	.	.	8F/	.	8a/)	.	(16cc\L	.	.	.	.	.	.	.	.	.	.	.	.	.	.	.	.	.	.	.
.	.	.	.	.	.	.	16bn\JJ)	.	.	.	.	.	.	.	.	.	.	.	.	.	.	.	.	.	.	.
4F\	.	.	8F/	.	8a/|	.	8cc\L|	.	.	.	.	.	.	.	.	.	.	.	4c/	4cc\	.	.	.	.	.	.
.	.	.	8c/J	.	8a/J|	.	(16ff\L	.	8F\	-mi-	8c\	-mi-	8f\	-mi-	8a\	-mi-	.	.	.	.	.	.	.	.	.	.
.	.	.	.	.	.	.	16ee\JJ)	.	.	.	.	.	.	.	.	.	.	.	.	.	.	.	.	.	.	.
4F\	.	.	8c/L	.	(8a/L	.	8ff\L|	.	4F\	-nes	4c\	-neſ	4f\	-nes	4a\	-neſ	.	.	4c/	4cc\	.	.	.	.	.	.
.	.	.	8F/	.	8cc/)	.	(16aa\L	.	.	.	.	.	.	.	.	.	.	.	.	.	.	.	.	.	.	.
.	.	.	.	.	.	.	16gg\JJ)	.	.	.	.	.	.	.	.	.	.	.	.	.	.	.	.	.	.	.
!	!	!	!	!	!	!	!LO:TX:t=P:problem=mixed beam	!	!	!	!	!	!	!	!	!	!	!	!	!	!	!	!	!	!	!
4F\	.	.	8F/	.	8cc/|	.	8aa\L	.	4F\	et	4c\	et	4f\	et	4a\	et	.	.	4c/	4cc\	.	.	.	.	.	.
.	.	.	8F/J	.	8cc/J|	.	8a/J	.	.	.	.	.	.	.	.	.	.	.	.	.	.	.	.	.	.	.
!LO:LB:g=original	!	!	!	!	!	!	!	!	!	!	!	!	!LO:LB:g=original	!	!LO:LB:g=original	!	!	!	!	!	!	!	!	!	!	!
=58	=58	=58	=58	=58	=58	=58	=58	=58	=58	=58	=58	=58	=58	=58	=58	=58	=58	=58	=58	=58	=58	=58	=58	=58	=58	=58
4D/	n6	.	8G/L	.	(8f/L	.	8bn\L	.	4D\	p(ro)p-	4fn\	p(ro)p-	4g\	p(ro)p-	4bn\	p(ro)p-	4GG/	.	4g/	4dd\	4g/	.	2f/	.	2b\	.
.	.	.	8F/	.	8G/)	.	8dd\J	.	.	.	.	.	.	.	.	.	.	.	.	.	.	.	.	.	.	.
4D/	.	.	8G/	.	8f/|	.	16cc\LL	.	4D/	-ter	4f\	-ter	4g\	-ter	4b\	-ter	4r	.	4g/	4dd\	8g/L	.	.	.	.	.
.	.	.	.	.	.	.	(16b\	.	.	.	.	.	.	.	.	.	.	.	.	.	.	.	.	.	.	.
.	.	.	8G/J	.	8f/J|	.	16a\	.	.	.	.	.	.	.	.	.	.	.	.	.	8g/J	.	.	.	.	.
.	.	.	.	.	.	.	16g\JJ)	.	.	.	.	.	.	.	.	.	.	.	.	.	.	.	.	.	.	.
!	!	!	!	!	!	!	!LO:LB:g=original	!	!	!	!	!	!	!	!	!	!	!	!	!	!	!	!	!	!	!
!	!	!	!	!	!LO:TX:t=P:problem=mixed beam	!	!	!	!	!	!	!	!	!	!	!	!	!	!	!	!	!	!	!	!	!
*	*	*	*tremolo	*	*	*	*	*	*	*	*	*	*	*	*	*	*	*	*	*	*	*	*	*	*	*
4C/	.	.	8G/L	.	8e/L	.	8cc\L|	.	4C/	no-	4e\	noſ-	4g\	noſ-	4cc\	noſ-	4C/	.	4cc\	4ee\	8cc/L	.	2e/	.	2cc\	.
.	.	.	8G/	.	8cc\	.	8ee\|	.	.	.	.	.	.	.	.	.	.	.	.	.	8g/	.	.	.	.	.
!	!	!	!	!	!	!	!	!	!LO:LB:g=original	!	!	!	!	!	!	!	!	!	!	!	!	!	!	!	!	!
4C/	.	.	8G/	.	8ee\	.	8gg\|	.	8C/	-stram	8e\	-tram	8g\	-tram	8cc\	-tram	4r	.	4c/	4ee\	8e/	.	.	.	.	.
.	.	.	8G/J	.	8cc\J	.	8ee\J|	.	8C/	ſa-	8e\	ſa-	8g\	ſa-	8cc\	ſa-	.	.	.	.	8c/J	.	.	.	.	.
!	!	!	!LO:LB:g=original	!	!	!	!	!	!	!	!LO:LB:g=original	!	!	!	!	!	!	!	!	!	!LO:LB:g=original	!	!	!	!	!
=59	=59	=59	=59	=59	=59	=59	=59	=59	=59	=59	=59	=59	=59	=59	=59	=59	=59	=59	=59	=59	=59	=59	=59	=59	=59	=59
4G\	6 4	.	4G/	.	4ccT\	.	4eet\	.	4G\	-lu-	4e\	-lu-	4g\	-lu-	4cc\	-lu-	4GG/	.	4cc\	4ee\	4c/	.	4cc\	.	4ee\	.
4GG/	5 3	.	4G/	.	4bn\	.	4dd\	.	4G\	-tem	4d\	-tem	4g\	-tem	4bn\	-tem	4GG/	.	4g/	4dd\	4G/	.	4b\	.	4dd\	.
!	!	!	!	!	!	!LO:DY:a	!	!LO:DY:a	!	!	!	!	!	!	!	!	!	!	!	!	!	!	!	!	!	!
2r	.	.	2r	.	8e/L	p	(8g/L	p	2r	.	(8e\L	de-	2r	.	8gg\L	de-	2r	.	2r	2r	2r	.	2r	.	2r	.
!	!	!	!	!	!	!	!LO:SIC:v:s=8fn	!	!	!	!	!	!	!	!	!	!	!	!	!	!	!	!	!	!	!
.	.	.	.	.	(8d/	.	8f#X/	.	.	.	8d\	.	.	.	8ffn\	.	.	.	.	.	.	.	.	.	.	.
.	.	.	.	.	8e/	.	8g/	.	.	.	8e\	.	.	.	8gg\	.	.	.	.	.	.	.	.	.	.	.
.	.	.	.	.	8d/J)	.	8fn/J)	.	.	.	8d\J)	.	.	.	8ff\J	.	.	.	.	.	.	.	.	.	.	.
=60	=60	=60	=60	=60	=60	=60	=60	=60	=60	=60	=60	=60	=60	=60	=60	=60	=60	=60	=60	=60	=60	=60	=60	=60	=60	=60
!	!	!LO:DY:t=po.	!	!LO:DY:t=p&colon;	!	!	!	!	!	!	!	!	!	!	!	!	!	!	!	!	!	!	!	!	!	!
4C/	.	p	4G/	p	8c/L	.	8e/L	.	1r	.	4c\	-scen-	2r	.	4ee\	-scen-	0r	.	1r	1r	1r	.	1r	.	1r	.
.	.	.	.	.	8c/J	.	8e/J	.	.	.	.	.	.	.	.	.	.	.	.	.	.	.	.	.	.	.
4C/	.	.	4G/	.	4c/	.	4e/	.	.	.	4c\	-dit	.	.	4ee\	-dit	.	.	.	.	.	.	.	.	.	.
2r	.	.	2r	.	8g/L	.	8ee\L	.	.	.	(8e\L	de-	(8g\L	de-	2r	.	.	.	.	.	.	.	.	.	.	.
.	.	.	.	.	(8fn/	.	(8dd\	.	.	.	8d\	.	8fn\	.	.	.	.	.	.	.	.	.	.	.	.	.
.	.	.	.	.	8g/	.	8ee\	.	.	.	8e\	.	8g\	.	.	.	.	.	.	.	.	.	.	.	.	.
.	.	.	.	.	8f/J)	.	8dd\J)	.	.	.	8d\J)	.	8f\J)	.	.	.	.	.	.	.	.	.	.	.	.	.
!	!	!	!	!	!LO:LB:g=original	!	!	!	!	!	!	!	!	!	!	!	!	!	!	!	!	!	!	!	!	!
=61	=61	=61	=61	=61	=61	=61	=61	=61	=61	=61	=61	=61	=61	=61	=61	=61	=61	=61	=61	=61	=61	=61	=61	=61	=61	=61
4C/	.	.	4G/	.	8e/L	.	8cc\L|	.	2r	.	4c\	-scen-	4e\	-scen-	2r	.	.	.	2r	2r	2r	.	2r	.	2r	.
.	.	.	.	.	8e/J	.	8cc\J|	.	.	.	.	.	.	.	.	.	.	.	.	.	.	.	.	.	.	.
4C/	.	.	4G/	.	4e/	.	4cc\|	.	.	.	4c\	-dit	4e\	-dit	.	.	.	.	.	.	.	.	.	.	.	.
!	!	!	!	!LO:DY:t=fo.	!	!	!	!	!	!	!	!	!	!	!	!	!	!	!	!	!	!	!	!	!	!
.	.	.	.	f	.	.	.	f	.	.	.	.	.	.	.	.	.	.	.	.	.	.	.	.	.	.
!LO:TX:a:t=T&colon;	!	!LO:DY:t=for&colon;	!	!	!	!	!	!	!	!	!	!	!	!	!	!	!	!	!	!	!	!	!	!	!	!
*	*	*	*	*	*tremolo	*	*tremolo	*	*	*	*	*	*	*	*	*	*	*	*	*	*	*	*	*	*	*
8C/L	.	f	8G/L	.	8ee\L	.	8ccc\L	.	4r	.	4r	.	4r	.	4r	.	.	.	4e/	4cc\	4c/	.	[<2cc\	.	2ee\	.
8D/	.	.	8G/	.	8ee\	.	8ccc\	.	.	.	.	.	.	.	.	.	.	.	.	.	.	.	.	.	.	.
8E/	.	.	8G/	.	8ee\	.	8ccc\	.	4C/	de-	4c\	de-	4g\	de-	4cc\	de-	.	.	4e/	4cc\	8c/L	.	.	.	.	.
8C/J	.	.	8G/J	.	8ee\J	.	8ccc\J	.	.	.	.	.	.	.	.	.	.	.	.	.	8c/J	.	.	.	.	.
=62	=62	=62	=62	=62	=62	=62	=62	=62	=62	=62	=62	=62	=62	=62	=62	=62	=62	=62	=62	=62	=62	=62	=62	=62	=62	=62
8F\L	6_ 5_	.	8A/L	.	8dd\L	.	8ccc\L	.	4F\	-ſcen-	4c\	-ſcen-	4a\	-scen-	4dd\	-ſcen-	2r	.	4cc\	4dd\	4c/	.	2.cc\]	.	2dd\	.
8E\	.	.	8A/	.	8dd\	.	8ccc\	.	.	.	.	.	.	.	.	.	.	.	.	.	.	.	.	.	.	.
8F\	.	.	8A/	.	8dd\	.	8ccc\	.	8F\	-dit	8c\	-dit	8a\	-dit	8dd'\	-dit	.	.	4cc\	4dd\	4r	.	.	.	.	.
8D\J	.	.	8A/J	.	8dd\J	.	8ccc\J	.	8F\	de	8c\	de	8a\	de	8dd'\	de	.	.	.	.	.	.	.	.	.	.
*	*	*	*	*	*Xtremolo	*	*Xtremolo	*	*	*	*	*	*	*	*	*	*	*	*	*	*	*	*	*	*	*
!	!	!	!	!	!	!	!	!	!	!	!	!	!	!LO:MO:v:mod=cae	!	!	!	!	!	!	!	!	!	!	!	!
4G\	X 4	.	8G/L	.	8ee\L	.	8ccc\L|	.	2G\	Cae-	(4c\	cae-	2g\	Coe-	(4ee\	Cae-	4GG/	.	4cc\	4ee\	4g/	.	.	.	4ee\	.
.	.	.	8G/	.	8ee\	.	8ccc\|	.	.	.	.	.	.	.	.	.	.	.	.	.	.	.	.	.	.	.
4GG/	X 3	.	8G/	.	8dd\	.	8bb\|	.	.	.	4B\)	.	.	.	4dd\)	.	4GG/	.	4g/	4dd\	8g/L	.	4b\	.	4dd\	.
.	.	.	8G/J	.	8dd\J	.	8bb\J|	.	.	.	.	.	.	.	.	.	.	.	.	.	8g/J	.	.	.	.	.
*	*	*	*Xtremolo	*	*	*	*	*	*	*	*	*	*	*	*	*	*	*	*	*	*	*	*	*	*	*
=63	=63	=63	=63	=63	=63	=63	=63	=63	=63	=63	=63	=63	=63	=63	=63	=63	=63	=63	=63	=63	=63	=63	=63	=63	=63	=63
2C/	.	.	2G/	.	2ee\	.	2ccc\	.	2C/	-lis	2c\	-lis	2g\	-lis	2ee\	-lis	2C/	.	2e/	2cc\	2e/	.	2cc\	.	2ee\	.
2r	.	.	2r	.	2r	.	2r	.	2r	.	2r	.	2r	.	2r	.	2r	.	2r	2r	2r	.	2r	.	2r	.
==	==	==	==	==	==	==	==	==	==	==	==	==	==	==	==	==	==	==	==	==	==	==	==	==	==	==
*-	*-	*-	*-	*-	*-	*-	*-	*-	*-	*-	*-	*-	*-	*-	*-	*-	*-	*-	*-	*-	*-	*-	*-	*-	*-	*-
!!!system-decoration: [g1][g2]s6[g3][g4]s14
!!!RDF**kern: < = below
!!!RDF**dynam: p = "po:"
!!!RDF**dynam: f = "fo:"
!!!RDF**kern: | = vertical stroke
!!!ENC: Zofia Niedbalska
!!!END: 2021-01-26
!!!ENC: Kamil Watkowski
!!!END: 2021-01-22
